wonjun0901/QM_Develop_Machinelearning/Robot_validation/robot6_DO3.csv
timestamp,Timestamp_Realtime,target_q_0,target_q_1,target_q_2,target_q_3,target_q_4,target_q_5,actual_q_0,actual_q_1,actual_q_2,actual_q_3,actual_q_4,actual_q_5,target_qd_0,target_qd_1,target_qd_2,target_qd_3,target_qd_4,target_qd_5,actual_qd_0,actual_qd_1,actual_qd_2,actual_qd_3,actual_qd_4,actual_qd_5,target_qdd_0,target_qdd_1,target_qdd_2,target_qdd_3,target_qdd_4,target_qdd_5,target_TCP_pose_0,target_TCP_pose_1,target_TCP_pose_2,target_TCP_pose_3,target_TCP_pose_4,target_TCP_pose_5,actual_TCP_pose_0,actual_TCP_pose_1,actual_TCP_pose_2,actual_TCP_pose_3,actual_TCP_pose_4,actual_TCP_pose_5,target_TCP_speed_0,target_TCP_speed_1,target_TCP_speed_2,target_TCP_speed_3,target_TCP_speed_4,target_TCP_speed_5,actual_TCP_speed_0,actual_TCP_speed_1,actual_TCP_speed_2,actual_TCP_speed_3,actual_TCP_speed_4,actual_TCP_speed_5,actual_TCP_force_0,actual_TCP_force_1,actual_TCP_force_2,actual_TCP_force_3,actual_TCP_force_4,actual_TCP_force_5,safety_mode,tool_output_mode,tool_digital_output0_mode,tool_digital_output1_mode,tool_output_current,tool_mode,tool_output_voltage,io_current,actual_digital_input_bits,actual_digital_output_bits,output_bit_registers0_to_31,output_bit_registers32_to_63,input_bit_registers0_to_31,input_bit_registers32_to_63
10637.053,2/18/2021 4:58:32 PM,5.0528819227665,-2.05886606299295,-2.19583697790962,5.82597822597681,1.57156827078677,0.34308125530996,5.05287837982178,-2.05889668087148,-2.19582843780518,5.82598160484389,1.57153749465942,0.343084812164307,0,0,0,0,0,0,0,0,0,0,0,0,0,0,0,0,0,0,-0.0255809654918041,-0.320616495844364,-0.123477418097299,0.000186409108065648,3.14150369609271,0.00035919067257015,-0.0255918669795639,-0.320616458500696,-0.123484586842549,0.000197608286966072,3.14153892353497,0.000370620093507914,0,0,0,0,0,0,0,0,0,0,0,0,0.147655703477014,0.0149766209938041,0.0659075872403598,0.00133930731329757,0.00606452090648716,-0.00118772486779764,1,1057096192,2403271170,1838104322,0.0153459310531616,253,24,0,0,0,0,0,0,0
10637.055,2/18/2021 4:58:32 PM,5.0528819227665,-2.05886606299295,-2.19583697790962,5.82597822597681,1.57156827078677,0.34308125530996,5.05289030075073,-2.05884899715566,-2.1958532333374,5.82598160484389,1.57157373428345,0.343084812164307,0,0,0,0,0,0,0,0,0,0,0,0,0,0,0,0,0,0,-0.0255809654918041,-0.320616495844364,-0.123477418097299,0.000186409108065648,3.14150369609271,0.00035919067257015,-0.0255774818241822,-0.320614023102073,-0.123475036551543,0.000178777013804642,3.1414971410622,0.000355881804028482,0,0,0,0,0,0,0,0,0,0,0,0,0.0571860580007726,0.0583063450962096,0.110091850768691,0.000868504639090384,0.00456274760608961,-0.00275677222838808,1,1057096192,2470380034,1553153794,0.0189065933227539,253,24,0,0,0,0,0,0,0
10637.059,2/18/2021 4:58:33 PM,5.0528819227665,-2.05886606299295,-2.19583697790962,5.82597822597681,1.57156827078677,0.34308125530996,5.05289030075073,-2.05883659938955,-2.1958532333374,5.82601784446792,1.57157373428345,0.343120098114014,0,0,0,0,0,0,0,0,0,0,0,0,0,0,0,0,0,0,-0.0255809654918041,-0.320616495844364,-0.123477418097299,0.000186409108065648,3.14150369609271,0.00035919067257015,-0.02557269932213,-0.320627453550639,-0.123468314037986,0.000234164542760029,3.1414808600911,0.000283897542276851,0,0,0,0,0,0,0,0,0,0,0,0,0.0910052808492682,0.0564206006516799,0.00201362436918768,0.00039002789244376,0.00493112896006567,-0.000918700059303795,1,1057096192,2386493954,160317186,0.0146663188934326,253,24,0,0,0,0,0,0,0
10637.063,2/18/2021 4:58:33 PM,5.0528819227665,-2.05886606299295,-2.19583697790962,5.82597822597681,1.57156827078677,0.34308125530996,5.05289030075073,-2.05889668087148,-2.19584178924561,5.82598160484389,1.57156133651733,0.343084812164307,0,0,0,0,0,0,0,0,0,0,0,0,0,0,0,0,0,0,-0.0255809654918041,-0.320616495844364,-0.123477418097299,0.000186409108065648,3.14150369609271,0.00035919067257015,-0.0255834961135,-0.320608184831083,-0.123486987847809,0.000178816603194745,3.14152092157022,0.000402985778795562,0,0,0,0,0,0,0,0,0,0,0,0,0.264158650774672,0.0239256843861048,0.0639470528128828,0.0020049939085157,0.0112098593091914,-0.00098054012223082,1,1057096192,2403271170,1083129602,0.0152596831321716,253,24,0,0,0,0,0,0,0
10637.067,2/18/2021 4:58:33 PM,5.0528819227665,-2.05886606299295,-2.19583697790962,5.82597822597681,1.57156827078677,0.34308125530996,5.05286598205566,-2.05888523677968,-2.1958646774292,5.82598160484389,1.57157373428345,0.343096256256104,0,0,0,0,0,0,0,0,0,0,0,0,0,0,0,0,0,0,-0.0255809654918041,-0.320616495844364,-0.123477418097299,0.000186409108065648,3.14150369609271,0.00035919067257015,-0.0255904760053909,-0.320598692410892,-0.123487736592682,0.000234906269130628,3.14151304762819,0.000426484110413833,0,0,0,0,0,0,0,0,0,0,0,0,0.158362402783478,0.0420973540635048,0.0860680335455174,7.14900864884755E-05,0.00562376462624535,-0.000736567392923181,1,1057096192,2453602818,3985784578,0.0184854865074158,253,24,0,0,0,0,0,0,0
10637.071,2/18/2021 4:58:33 PM,5.0528819227665,-2.05886606299295,-2.19583697790962,5.82597822597681,1.57156827078677,0.34308125530996,5.05291414260864,-2.05887283901357,-2.19582843780518,5.82596968391494,1.57156133651733,0.343048572540283,0,0,0,0,0,0,0,0,0,0,0,0,0,0,0,0,0,0,-0.0255809654918041,-0.320616495844364,-0.123477418097299,0.000186409108065648,3.14150369609271,0.00035919067257015,-0.0255726825774716,-0.320617812281287,-0.123478600376595,8.45058241694708E-05,3.14151250849586,0.000365555297956854,0,0,0,0,0,0,0,0,0,0,0,0,0.0699916439593894,0.089302949702455,0.142651726036446,0.000176535805598406,0.00712972418005658,-0.00299001365345322,1,1057096192,2336162306,1837842178,0.013393223285675,253,24,0,0,0,0,0,0,0
10637.075,2/18/2021 4:58:33 PM,5.0528819227665,-2.05886606299295,-2.19583697790962,5.82597822597681,1.57156827078677,0.34308125530996,5.05289030075073,-2.05889668087148,-2.19584178924561,5.82595776298598,1.57156133651733,0.343084812164307,0,0,0,0,0,0,0,0,0,0,0,0,0,0,0,0,0,0,-0.0255809654918041,-0.320616495844364,-0.123477418097299,0.000186409108065648,3.14150369609271,0.00035919067257015,-0.0255858902185944,-0.320601457755934,-0.123489013873247,0.000178842737949686,3.14152890817746,0.00043827040338031,0,0,0,0,0,0,0,0,0,0,0,0,0.248216470693222,0.0328427989656259,0.181903328069784,0.000112762739638118,0.00941887304442737,-0.00102526181474562,1,1057096192,2520711682,244727554,0.0215389132499695,253,24,0,0,0,0,0,0,0
10637.079,2/18/2021 4:58:33 PM,5.0528819227665,-2.05886606299295,-2.19583697790962,5.82597822597681,1.57156827078677,0.34308125530996,5.05289030075073,-2.05887283901357,-2.19582843780518,5.82598160484389,1.57156133651733,0.343072414398193,0,0,0,0,0,0,0,0,0,0,0,0,0,0,0,0,0,0,-0.0255809654918041,-0.320616495844364,-0.123477418097299,0.000186409108065648,3.14150369609271,0.00035919067257015,-0.0255791270343028,-0.320620556808164,-0.123477587207415,0.000159392275526461,3.141508511992,0.000347913112027676,0,0,0,0,0,0,0,0,0,0,0,0,0.125167039080873,0.0720275259490528,0.183822162627856,0.000163853895268926,0.0054390645988885,-0.00108531060587321,1,1057096192,2436825602,2307997442,0.0171263217926025,253,24,0,0,0,0,0,0,0
10637.083,2/18/2021 4:58:33 PM,5.0528819227665,-2.05886606299295,-2.19583697790962,5.82597822597681,1.57156827078677,0.34308125530996,5.05289030075073,-2.05887283901357,-2.19584178924561,5.82599400261001,1.57157373428345,0.343060493469238,0,0,0,0,0,0,0,0,0,0,0,0,0,0,0,0,0,0,-0.0255809654918041,-0.320616495844364,-0.123477418097299,0.000186409108065648,3.14150369609271,0.00035919067257015,-0.0255765638084106,-0.320616633860549,-0.123478932495367,0.000140597785951319,3.1414971319716,0.000355884652999879,0,0,0,0,0,0,0,0,0,0,0,0,0.237045768470854,0.123487738840603,0.106187199285028,-0.00381252473567568,0.0094739014062692,-0.00114053622757335,1,1057096192,2420048386,3616554754,0.0164467096328735,253,24,0,0,0,0,0,0,0
10637.087,2/18/2021 4:58:33 PM,5.0528819227665,-2.05886606299295,-2.19583697790962,5.82597822597681,1.57156827078677,0.34308125530996,5.05286598205566,-2.05887283901357,-2.19581699371338,5.82596968391494,1.57156133651733,0.343096256256104,0,0,0,0,0,0,0,0,0,0,0,0,0,0,0,0,0,0,-0.0255809654918041,-0.320616495844364,-0.123477418097299,0.000186409108065648,3.14150369609271,0.00035919067257015,-0.0255862511058829,-0.320621856035181,-0.123476545987796,0.000235091786379635,3.14150868649191,0.000348607911503018,0,0,0,0,0,0,0,0,0,0,0,0,0.18295708373024,0.0937175786763603,0.166019107511457,-0.00212792473756598,0.00817771406357691,-0.000264876764083092,1,1057096192,2352939522,2777431810,0.0139866471290588,253,24,0,0,0,0,0,0,0
10637.091,2/18/2021 4:58:33 PM,5.0528819227665,-2.05886606299295,-2.19583697790962,5.82597822597681,1.57156827078677,0.34308125530996,5.05286598205566,-2.05886139492177,-2.19581699371338,5.8260054467018,1.57156133651733,0.343096256256104,0,0,0,0,0,0,0,0,0,0,0,0,0,0,0,0,0,0,-0.0255809654918041,-0.320616495844364,-0.123477418097299,0.000186409108065648,3.14150369609271,0.00035919067257015,-0.0255816083441576,-0.320634918038181,-0.12347014409192,0.000235054756471413,3.14149288427749,0.000278737815484945,0,0,0,0,0,0,0,0,0,0,0,0,0.0934462032997396,0.0073267396113633,0.087473469268599,0.00178914493605761,0.00676388325300091,-0.00371447489640919,1,1057096192,2453602818,3985784578,0.0184854865074158,253,24,0,0,0,0,0,0,0
10637.095,2/18/2021 4:58:33 PM,5.0528819227665,-2.05886606299295,-2.19583697790962,5.82597822597681,1.57156827078677,0.34308125530996,5.05287837982178,-2.05887283901357,-2.19579410552979,5.82602976539687,1.57159757614136,0.343072414398193,0,0,0,0,0,0,0,0,0,0,0,0,0,0,0,0,0,0,-0.0255809654918041,-0.320616495844364,-0.123477418097299,0.000186409108065648,3.14150369609271,0.00035919067257015,-0.0255622852934223,-0.320646070900348,-0.1234673360018,0.000178141622902531,3.14144680051975,0.000244938950275339,0,0,0,0,0,0,0,0,0,0,0,0,-0.00356921627562058,0.0676175001999718,0.17261764363826,-0.000832894469257013,0.00375684388289571,-0.00275873635856763,1,1057096192,2386493954,160317186,0.0146662592887878,253,24,0,0,0,0,0,0,0
10637.099,2/18/2021 4:58:33 PM,5.0528819227665,-2.05886606299295,-2.19583697790962,5.82597822597681,1.57156827078677,0.34308125530996,5.05287837982178,-2.05887283901357,-2.1958646774292,5.8260054467018,1.57157373428345,0.343084812164307,0,0,0,0,0,0,0,0,0,0,0,0,0,0,0,0,0,0,-0.0255809654918041,-0.320616495844364,-0.123477418097299,0.000186409108065648,3.14150369609271,0.00035919067257015,-0.0255829688706497,-0.320608960380945,-0.123482068486703,0.000197432618556984,3.14150092500863,0.000372843744350994,0,0,0,0,0,0,0,0,0,0,0,0,0.245750380907036,0.0062732421793555,0.204306921236875,0.00170947328732396,0.0101277744722884,-0.00114882182144021,1,1057096192,2470380034,1922252546,0.0189927816390991,253,24,0,0,0,0,0,0,0
10637.103,2/18/2021 4:58:33 PM,5.0528819227665,-2.05886606299295,-2.19583697790962,5.82597822597681,1.57156827078677,0.34308125530996,5.05285453796387,-2.05887283901357,-2.1958646774292,5.82596968391494,1.57153749465942,0.343048572540283,0,0,0,0,0,0,0,0,0,0,0,0,0,0,0,0,0,0,-0.0255809654918041,-0.320616495844364,-0.123477418097299,0.000186409108065648,3.14150369609271,0.00035919067257015,-0.0256044335354467,-0.320601924719543,-0.123485101089833,0.000178031498006991,3.14154702939742,0.000406627309164799,0,0,0,0,0,0,0,0,0,0,0,0,0.0541613935066023,0.0351411095762505,0.203827896028001,-0.00115838175693533,0.0082830298285852,-0.00226362483805703,1,1057096192,2386493954,160317186,0.0146662592887878,253,24,0,0,0,0,0,0,0
10637.107,2/18/2021 4:58:33 PM,5.0528819227665,-2.05886606299295,-2.19583697790962,5.82597822597681,1.57156827078677,0.34308125530996,5.05289030075073,-2.05887283901357,-2.19584178924561,5.82599400261001,1.57157373428345,0.343036651611328,0,0,0,0,0,0,0,0,0,0,0,0,0,0,0,0,0,0,-0.0255809654918041,-0.320616495844364,-0.123477418097299,0.000186409108065648,3.14150369609271,0.00035919067257015,-0.0255765664306824,-0.320616643038717,-0.123478932497697,0.000103148221731077,3.14149713072522,0.000355882864215552,0,0,0,0,0,0,0,0,0,0,0,0,0.0924034335349215,0.104445170152846,0.241434648002254,-0.00106862318134023,0.00617863485122874,-0.000919666063674673,1,1057096192,2470380034,1922252546,0.0189928412437439,253,24,0,0,0,0,0,0,0
10637.111,2/18/2021 4:58:33 PM,5.0528819227665,-2.05886606299295,-2.19583697790962,5.82597822597681,1.57156827078677,0.34308125530996,5.05289030075073,-2.05887283901357,-2.19581699371338,5.82599400261001,1.57157373428345,0.343084812164307,0,0,0,0,0,0,0,0,0,0,0,0,0,0,0,0,0,0,-0.0255809654918041,-0.320616495844364,-0.123477418097299,0.000186409108065648,3.14150369609271,0.00035919067257015,-0.0255725149852685,-0.320628094879242,-0.123474481228223,0.000178878535989454,3.14148886811433,0.000319167537049465,0,0,0,0,0,0,0,0,0,0,0,0,0.101022105329163,0.00876355330756249,0.111666013277559,2.66893658998485E-05,0.00610330283356416,-0.0021285855564691,1,1057096192,2436825602,2307997442,0.0171263217926025,253,24,0,0,0,0,0,0,0
10637.115,2/18/2021 4:58:33 PM,5.0528819227665,-2.05886606299295,-2.19583697790962,5.82597822597681,1.57156827078677,0.34308125530996,5.05289030075073,-2.05886139492177,-2.19579410552979,5.82599400261001,1.57159757614136,0.343072414398193,0,0,0,0,0,0,0,0,0,0,0,0,0,0,0,0,0,0,-0.0255809654918041,-0.320616495844364,-0.123477418097299,0.000186409108065648,3.14150369609271,0.00035919067257015,-0.0255610019560611,-0.320639256750566,-0.123467014023221,0.000159459450662201,3.14145496381589,0.000280922001344668,0,0,0,0,0,0,0,0,0,0,0,0,0.112857460369575,-0.00142982900855908,0.193200134088373,0.00316925678317796,0.0085874036424097,-0.000612789465618706,1,1057096192,2453602818,3230809858,0.0183131694793701,253,24,0,0,0,0,0,0,0
10637.119,2/18/2021 4:58:33 PM,5.0528819227665,-2.05886606299295,-2.19583697790962,5.82597822597681,1.57156827078677,0.34308125530996,5.05290222167969,-2.05884899715566,-2.19582843780518,5.8260054467018,1.57157373428345,0.343108654022217,0,0,0,0,0,0,0,0,0,0,0,0,0,0,0,0,0,0,-0.0255809654918041,-0.320616495844364,-0.123477418097299,0.000186409108065648,3.14150369609271,0.00035919067257015,-0.0255672167795044,-0.32063251599773,-0.123468558594716,0.000197557520293727,3.14148089055568,0.000283882131831446,0,0,0,0,0,0,0,0,0,0,0,0,0.0604300515537962,-0.00223019550197946,0.19803409511299,0.000113933568955609,0.00646709432528547,-0.00123654773774832,1,1057096192,2470380034,1922252546,0.0189927816390991,253,24,0,0,0,0,0,0,0
10637.123,2/18/2021 4:58:33 PM,5.0528819227665,-2.05886606299295,-2.19583697790962,5.82597822597681,1.57156827078677,0.34308125530996,5.05287837982178,-2.05887283901357,-2.19581699371338,5.8260054467018,1.57157373428345,0.343048572540283,0,0,0,0,0,0,0,0,0,0,0,0,0,0,0,0,0,0,-0.0255809654918041,-0.320616495844364,-0.123477418097299,0.000186409108065648,3.14150369609271,0.00035919067257015,-0.0255751920482235,-0.320631032896715,-0.123473508469521,0.000140667470585967,3.14148503126112,0.000302227185834295,0,0,0,0,0,0,0,0,0,0,0,0,0.230952005629874,-0.0590561310517861,0.275755958664937,0.00243274964681103,0.010825550185224,-0.000378459381630024,1,1057096192,2420048386,3616554754,0.0164467096328735,253,24,0,0,0,0,0,0,0
10637.127,2/18/2021 4:58:33 PM,5.0528819227665,-2.05886606299295,-2.19583697790962,5.82597822597681,1.57156827078677,0.34308125530996,5.05290222167969,-2.05888523677968,-2.19584178924561,5.82598160484389,1.57156133651733,0.343060493469238,0,0,0,0,0,0,0,0,0,0,0,0,0,0,0,0,0,0,-0.0255809654918041,-0.320616495844364,-0.123477418097299,0.000186409108065648,3.14150369609271,0.00035919067257015,-0.0255786247623338,-0.320611470749655,-0.12348362600093,0.000121895367865496,3.14151710241718,0.000386041031209956,0,0,0,0,0,0,0,0,0,0,0,0,0.0601561315748132,0.0913481869532363,0.161401609628431,-0.000534721970987063,0.00460643900745756,-0.000967669218185378,1,1057096192,2487157250,630472450,0.0196724534034729,253,24,0,0,0,0,0,0,0
10637.131,2/18/2021 4:58:33 PM,5.0528819227665,-2.05886606299295,-2.19583697790962,5.82597822597681,1.57156827078677,0.34308125530996,5.05289030075073,-2.05884899715566,-2.1958532333374,5.82596968391494,1.57157373428345,0.343096256256104,0,0,0,0,0,0,0,0,0,0,0,0,0,0,0,0,0,0,-0.0255809654918041,-0.320616495844364,-0.123477418097299,0.000186409108065648,3.14150369609271,0.00035919067257015,-0.025578677603624,-0.320610655199346,-0.123476049713706,0.000196766012003594,3.14150113496531,0.000373524722019983,0,0,0,0,0,0,0,0,0,0,0,0,0.14632213049221,0.0361623841483178,0.126680711095154,0.000825307535214437,0.0047387630470914,-0.000921640907227631,1,1057096192,2453602818,1385316098,0.017892062664032,253,24,0,0,0,0,0,0,0
10637.135,2/18/2021 4:58:33 PM,5.0528819227665,-2.05886606299295,-2.19583697790962,5.82597822597681,1.57156827078677,0.34308125530996,5.05286598205566,-2.05888523677968,-2.19584178924561,5.82599400261001,1.57157373428345,0.343096256256104,0,0,0,0,0,0,0,0,0,0,0,0,0,0,0,0,0,0,-0.0255809654918041,-0.320616495844364,-0.123477418097299,0.000186409108065648,3.14150369609271,0.00035919067257015,-0.0255854964591772,-0.32061277878795,-0.123482574581951,0.000234968220995447,3.1415012664389,0.000374241405731857,0,0,0,0,0,0,0,0,0,0,0,0,0.133756008876635,0.115214207552749,0.196164599596114,-0.000881019770832811,0.00641570224759155,-0.00267187635070296,1,1057096192,2369716738,3700244226,0.014580249786377,253,24,0,0,0,0,0,0,0
10637.139,2/18/2021 4:58:33 PM,5.0528819227665,-2.05886606299295,-2.19583697790962,5.82597822597681,1.57156827078677,0.34308125530996,5.05284214019775,-2.05889668087148,-2.1958646774292,5.82595776298598,1.57156133651733,0.343072414398193,0,0,0,0,0,0,0,0,0,0,0,0,0,0,0,0,0,0,-0.0255809654918041,-0.320616495844364,-0.123477418097299,0.000186409108065648,3.14150369609271,0.00035919067257015,-0.0256050663823793,-0.320589641452259,-0.123493121951017,0.000234941695093555,3.14153652303617,0.000472162847276304,0,0,0,0,0,0,0,0,0,0,0,0,0.0876477554780764,0.0471111266441953,0.237758837536427,0.000587226650447654,0.00821216693347496,-0.00139649446295762,1,1057096192,2352939522,2777431810,0.0139867067337036,253,24,0,0,0,0,0,0,0
10637.143,2/18/2021 4:58:33 PM,5.0528819227665,-2.05886606299295,-2.19583697790962,5.82597822597681,1.57156827078677,0.34308125530996,5.05291414260864,-2.05886139492177,-2.19581699371338,5.8260054467018,1.57158517837524,0.343084812164307,0,0,0,0,0,0,0,0,0,0,0,0,0,0,0,0,0,0,-0.0255809654918041,-0.320616495844364,-0.123477418097299,0.000186409108065648,3.14150369609271,0.00035919067257015,-0.0255594401334332,-0.320633751648976,-0.123470148337025,0.000141407664547146,3.14147043925459,0.000291334796504218,0,0,0,0,0,0,0,0,0,0,0,0,0.126843358007976,0.161740129273583,0.138182033447218,-0.00172215871481117,0.00727658674581738,-0.00212721023262751,1,1057096192,2453602818,3616685826,0.0183994174003601,253,24,0,0,0,0,0,0,0
10637.147,2/18/2021 4:58:33 PM,5.0528819227665,-2.05886606299295,-2.19583697790962,5.82597822597681,1.57156827078677,0.34308125530996,5.05289030075073,-2.05888523677968,-2.1958532333374,5.82599400261001,1.57159757614136,0.343084812164307,0,0,0,0,0,0,0,0,0,0,0,0,0,0,0,0,0,0,-0.0255809654918041,-0.320616495844364,-0.123477418097299,0.000186409108065648,3.14150369609271,0.00035919067257015,-0.02557284075835,-0.320605708936048,-0.123484632996014,0.000178733625637923,3.14148263145343,0.000403782572321175,0,0,0,0,0,0,0,0,0,0,0,0,0.0795322759706799,-0.0281916657650539,0.212061094879728,0.000125870755568396,0.00305705472985003,-0.0018130205648814,1,1057096192,2319385090,1670004482,0.0128857493400574,253,24,0,0,0,0,0,0,0
10637.151,2/18/2021 4:58:33 PM,5.0528819227665,-2.05886606299295,-2.19583697790962,5.82597822597681,1.57156827078677,0.34308125530996,5.05291414260864,-2.05888523677968,-2.19582843780518,5.82595776298598,1.57157373428345,0.343072414398193,0,0,0,0,0,0,0,0,0,0,0,0,0,0,0,0,0,0,-0.0255809654918041,-0.320616495844364,-0.123477418097299,0.000186409108065648,3.14150369609271,0.00035919067257015,-0.0255715185574924,-0.320609971175944,-0.123483257763162,0.000121954584589601,3.14150896616139,0.000408103365335927,0,0,0,0,0,0,0,0,0,0,0,0,0.117823882914083,0.0877971371502123,0.328053761414891,-0.00205591164499421,0.00517073608646012,-0.00195879605105285,1,1057096192,2269053442,2609331970,0.0115267634391785,253,24,0,0,0,0,0,0,0
10637.155,2/18/2021 4:58:33 PM,5.0528819227665,-2.05886606299295,-2.19583697790962,5.82597822597681,1.57156827078677,0.34308125530996,5.05287837982178,-2.05888523677968,-2.1958646774292,5.82598160484389,1.57157373428345,0.343072414398193,0,0,0,0,0,0,0,0,0,0,0,0,0,0,0,0,0,0,-0.0255809654918041,-0.320616495844364,-0.123477418097299,0.000186409108065648,3.14150369609271,0.00035919067257015,-0.0255865039185238,-0.320599018829028,-0.123487736595383,0.000177982642058443,3.14151304981745,0.000426483394586934,0,0,0,0,0,0,0,0,0,0,0,0,0.0749897601306072,-0.0728216187682769,0.183488568277466,0.00492731903901748,0.00533036598244605,-0.00185293873590567,1,1057096192,2420048386,3616554754,0.0164466500282288,253,24,0,0,0,0,0,0,0
10637.159,2/18/2021 4:58:33 PM,5.0528819227665,-2.05886606299295,-2.19583697790962,5.82597822597681,1.57156827078677,0.34308125530996,5.05291414260864,-2.05889668087148,-2.1958532333374,5.82598160484389,1.57158517837524,0.343072414398193,0,0,0,0,0,0,0,0,0,0,0,0,0,0,0,0,0,0,-0.0255809654918041,-0.320616495844364,-0.123477418097299,0.000186409108065648,3.14150369609271,0.00035919067257015,-0.0255709937027904,-0.320601102952972,-0.123489046243791,0.000121833335711907,3.14150228537947,0.000432526842823788,0,0,0,0,0,0,0,0,0,0,0,0,0.221672883411783,-0.0618173834403196,0.320778967613383,0.00331782219637958,0.00887304515246489,-0.00201079180284817,1,1057096192,2453602818,630341378,0.0177197456359863,253,24,0,0,0,0,0,0,0
10637.163,2/18/2021 4:58:33 PM,5.0528819227665,-2.05886606299295,-2.19583697790962,5.82597822597681,1.57156827078677,0.34308125530996,5.05291414260864,-2.05886139492177,-2.1958532333374,5.82595776298598,1.57156133651733,0.343084812164307,0,0,0,0,0,0,0,0,0,0,0,0,0,0,0,0,0,0,-0.0255809654918041,-0.320616495844364,-0.123477418097299,0.000186409108065648,3.14150369609271,0.00035919067257015,-0.0255768700776107,-0.320605936004351,-0.123480702575415,0.000141362430330308,3.14152094817071,0.000402974994887564,0,0,0,0,0,0,0,0,0,0,0,0,0.0535015763799647,-0.0123593885093609,0.215921030432853,0.00137770912010374,0.00823956989339028,0.000222454766087383,1,1057096192,2436825602,2307997442,0.0171263217926025,253,24,0,0,0,0,0,0,0
10637.167,2/18/2021 4:58:33 PM,5.0528819227665,-2.05886606299295,-2.19583697790962,5.82597822597681,1.57156827078677,0.34308125530996,5.05290222167969,-2.05887283901357,-2.1958646774292,5.8260054467018,1.57157373428345,0.343072414398193,0,0,0,0,0,0,0,0,0,0,0,0,0,0,0,0,0,0,-0.0255809654918041,-0.320616495844364,-0.123477418097299,0.000186409108065648,3.14150369609271,0.00035919067257015,-0.0255753263137719,-0.32060957500795,-0.123482068487961,0.000140509211742904,3.14150092942868,0.00037284456396651,0,0,0,0,0,0,0,0,0,0,0,0,0.186218713050475,-0.077570395276998,0.283984107719733,0.00586009874014158,0.00762178072097893,0.000285797972025385,1,1057096192,2420048386,630210306,0.0157670378684998,253,24,0,0,0,0,0,0,0
10637.171,2/18/2021 4:58:33 PM,5.0528819227665,-2.05886606299295,-2.19583697790962,5.82597822597681,1.57156827078677,0.34308125530996,5.05290222167969,-2.05886139492177,-2.1958532333374,5.82601784446792,1.57157373428345,0.343084812164307,0,0,0,0,0,0,0,0,0,0,0,0,0,0,0,0,0,0,-0.0255809654918041,-0.320616495844364,-0.123477418097299,0.000186409108065648,3.14150369609271,0.00035919067257015,-0.0255711604137693,-0.3206213338057,-0.123475598464151,0.000160009654259359,3.14148914128086,0.000320606791989562,0,0,0,0,0,0,0,0,0,0,0,0,0.0358498029781132,0.0159347242653588,0.18158053041199,-0.000235390602030219,0.00642354044142353,0.00019712691975458,1,1057096192,2386493954,160317186,0.0146663188934326,253,24,0,0,0,0,0,0,0
10637.175,2/18/2021 4:58:33 PM,5.0528819227665,-2.05886606299295,-2.19583697790962,5.82597822597681,1.57156827078677,0.34308125530996,5.05286598205566,-2.05888523677968,-2.19582843780518,5.82595776298598,1.57157373428345,0.343084812164307,0,0,0,0,0,0,0,0,0,0,0,0,0,0,0,0,0,0,-0.0255809654918041,-0.320616495844364,-0.123477418097299,0.000186409108065648,3.14150369609271,0.00035919067257015,-0.0255869579174954,-0.320608734493077,-0.123483257761808,0.000217076836342872,3.14150895638157,0.000408101017464269,0,0,0,0,0,0,0,0,0,0,0,0,0.100158031675041,-0.0314116985775518,0.321407449007166,0.00227215551530127,0.00511105694157691,-0.0017381359241034,1,1057096192,2436825602,2307997442,0.0171263217926025,253,24,0,0,0,0,0,0,0
10637.179,2/18/2021 4:58:33 PM,5.0528819227665,-2.05886606299295,-2.19583697790962,5.82597822597681,1.57156827078677,0.34308125530996,5.05287837982178,-2.05888523677968,-2.1958646774292,5.8260054467018,1.57158517837524,0.343084812164307,0,0,0,0,0,0,0,0,0,0,0,0,0,0,0,0,0,0,-0.0255809654918041,-0.320616495844364,-0.123477418097299,0.000186409108065648,3.14150369609271,0.00035919067257015,-0.0255808793040772,-0.320604588076626,-0.123485712495384,0.000197419361925594,3.14149428558348,0.000397244207828934,0,0,0,0,0,0,0,0,0,0,0,0,-0.0441191069604568,0.0787044626838508,0.307109478351384,0.000904440552882969,0.00544684265172463,-0.000985616581643479,1,1057096192,2420048386,3985653506,0.0165327787399292,253,24,0,0,0,0,0,0,0
10637.183,2/18/2021 4:58:33 PM,5.0528819227665,-2.05886606299295,-2.19583697790962,5.82597822597681,1.57156827078677,0.34308125530996,5.05287837982178,-2.05888523677968,-2.19582843780518,5.82596968391494,1.57156133651733,0.343084812164307,0,0,0,0,0,0,0,0,0,0,0,0,0,0,0,0,0,0,-0.0255809654918041,-0.320616495844364,-0.123477418097299,0.000186409108065648,3.14150369609271,0.00035919067257015,-0.025585284414199,-0.320613664371073,-0.123482242454172,0.000197601423025495,3.14151664223136,0.0003839113268791,0,0,0,0,0,0,0,0,0,0,0,0,0.112159250620465,-0.0189466057009582,0.304318736217856,0.00164849660530846,0.00883700515507127,-0.00181976921971549,1,1057096192,2453602818,3616685826,0.0183993577957153,253,24,0,0,0,0,0,0,0
10637.187,2/18/2021 4:58:33 PM,5.0528819227665,-2.05886606299295,-2.19583697790962,5.82597822597681,1.57156827078677,0.34308125530996,5.05287837982178,-2.05888523677968,-2.1958532333374,5.8260054467018,1.57157373428345,0.343108654022217,0,0,0,0,0,0,0,0,0,0,0,0,0,0,0,0,0,0,-0.0255809654918041,-0.320616495844364,-0.123477418097299,0.000186409108065648,3.14150369609271,0.00035919067257015,-0.0255822384998426,-0.320611026072954,-0.123483656244145,0.000234917626678699,3.14150124983481,0.000374254043150657,0,0,0,0,0,0,0,0,0,0,0,0,0.0302954137292375,0.0730413642785439,0.0394125182240192,-0.000528989568350705,0.00510208993156205,0.000253445757523338,1,1057096192,2487157250,630472450,0.0196723937988281,253,24,0,0,0,0,0,0,0
10637.191,2/18/2021 4:58:33 PM,5.0528819227665,-2.05886606299295,-2.19583697790962,5.82597822597681,1.57156827078677,0.34308125530996,5.05290222167969,-2.05887283901357,-2.19584178924561,5.82595776298598,1.57157373428345,0.343084812164307,0,0,0,0,0,0,0,0,0,0,0,0,0,0,0,0,0,0,-0.0255809654918041,-0.320616495844364,-0.123477418097299,0.000186409108065648,3.14150369609271,0.00035919067257015,-0.025576378214351,-0.320606704348811,-0.123482012377533,0.000160111566422202,3.14150927563975,0.00040951936066268,0,0,0,0,0,0,0,0,0,0,0,0,0.185990598481991,-0.0456810044740432,0.0223899507762989,0.00368728267138275,0.00810834881976143,-0.000217958658256081,1,1057096192,2420048386,3985653506,0.0165327787399292,253,24,0,0,0,0,0,0,0
10637.195,2/18/2021 4:58:33 PM,5.0528819227665,-2.05886606299295,-2.19583697790962,5.82597822597681,1.57156827078677,0.34308125530996,5.05285453796387,-2.05887283901357,-2.19579410552979,5.82598160484389,1.57157373428345,0.343084812164307,0,0,0,0,0,0,0,0,0,0,0,0,0,0,0,0,0,0,-0.0255809654918041,-0.320616495844364,-0.123477418097299,0.000186409108065648,3.14150369609271,0.00035919067257015,-0.02558149180663,-0.320634270179926,-0.123471425966776,0.000235142252263211,3.14148538542201,0.000303617882492582,0,0,0,0,0,0,0,0,0,0,0,0,0.0596047349201569,-0.00481526776298427,0.0577659221635974,0.000840618908200359,0.00380329772713902,-0.000208296481156834,1,1057096192,2420048386,999309058,0.0158532857894897,253,24,0,0,0,0,0,0,0
10637.199,2/18/2021 4:58:33 PM,5.0528819227665,-2.05886606299295,-2.19583697790962,5.82597822597681,1.57156827078677,0.34308125530996,5.05286598205566,-2.05890907863759,-2.19580554962158,5.82599400261001,1.57156133651733,0.343096256256104,0,0,0,0,0,0,0,0,0,0,0,0,0,0,0,0,0,0,-0.0255809654918041,-0.320616495844364,-0.123477418097299,0.000186409108065648,3.14150369609271,0.00035919067257015,-0.0255852731600742,-0.320624601693715,-0.123483071102476,0.00023509538771599,3.14150882348868,0.00034932634383492,0,0,0,0,0,0,0,0,0,0,0,0,0.093923052063371,0.000342572116223076,-0.047624084678295,0.00213754066336696,0.00417020129742981,-0.000545569748510611,1,1057096192,2503934466,1922383618,0.0209454894065857,253,24,0,0,0,0,0,0,0
10637.203,2/18/2021 4:58:33 PM,5.0528819227665,-2.05886606299295,-2.19583697790962,5.82597822597681,1.57156827078677,0.34308125530996,5.05290222167969,-2.05887283901357,-2.19580554962158,5.82595776298598,1.57154941558838,0.343072414398193,0,0,0,0,0,0,0,0,0,0,0,0,0,0,0,0,0,0,-0.0255809654918041,-0.320616495844364,-0.123477418097299,0.000186409108065648,3.14150369609271,0.00035919067257015,-0.0255773278153513,-0.320625923937096,-0.123475502561786,0.000140780858932405,3.14152009993456,0.000343006868886553,0,0,0,0,0,0,0,0,0,0,0,0,0.198045501579858,0.0871222744658372,0.0167074362754346,-0.000616534287033134,0.00670400379073086,0.000486313378954396,1,1057096192,2386493954,160317186,0.0146662592887878,253,24,0,0,0,0,0,0,0
10637.207,2/18/2021 4:58:33 PM,5.0528819227665,-2.05886606299295,-2.19583697790962,5.82597822597681,1.57156827078677,0.34308125530996,5.05285453796387,-2.05884899715566,-2.19584178924561,5.82596968391494,1.57157373428345,0.343072414398193,0,0,0,0,0,0,0,0,0,0,0,0,0,0,0,0,0,0,-0.0255809654918041,-0.320616495844364,-0.123477418097299,0.000186409108065648,3.14150369609271,0.00035919067257015,-0.0255882788727426,-0.32061504350708,-0.123473995337416,0.000215528710832397,3.14149731259543,0.00035657302669373,0,0,0,0,0,0,0,0,0,0,0,0,0.134423364156033,-0.0170050880030691,0.230625750659243,-9.97802089464612E-05,0.00759497795132348,-0.00181761715736651,1,1057096192,2420048386,1385185026,0.0159393548965454,253,24,0,0,0,0,0,0,0
10637.211,2/18/2021 4:58:33 PM,5.0528819227665,-2.05886606299295,-2.19583697790962,5.82597822597681,1.57156827078677,0.34308125530996,5.05287837982178,-2.05884899715566,-2.19587802886963,5.82602976539687,1.57158517837524,0.343084812164307,0,0,0,0,0,0,0,0,0,0,0,0,0,0,0,0,0,0,-0.0255809654918041,-0.320616495844364,-0.123477418097299,0.000186409108065648,3.14150369609271,0.00035919067257015,-0.0255772847786723,-0.320614683173376,-0.123475396333487,0.000197355126382621,3.14147849055768,0.000327370721454142,0,0,0,0,0,0,0,0,0,0,0,0,0.12206072469277,-0.0404372863557234,0.0514876549500969,0.00280645222333228,0.005595278678758,0.000435257560294629,1,1057096192,2470380034,1922252546,0.0189928412437439,253,24,0,0,0,0,0,0,0
10637.215,2/18/2021 4:58:33 PM,5.0528819227665,-2.05886606299295,-2.19583697790962,5.82597822597681,1.57156827078677,0.34308125530996,5.05289030075073,-2.05884899715566,-2.19580554962158,5.82601784446792,1.57156133651733,0.343084812164307,0,0,0,0,0,0,0,0,0,0,0,0,0,0,0,0,0,0,-0.0255809654918041,-0.320616495844364,-0.123477418097299,0.000186409108065648,3.14150369609271,0.00035919067257015,-0.0255695602213349,-0.320647555393382,-0.12346339302245,0.000178907609747249,3.14148078062513,0.000225088568787959,0,0,0,0,0,0,0,0,0,0,0,0,0.149168183405092,0.0296250431038188,0.0499597834884134,0.00221128996803466,0.00881567211113993,-0.000201044036136476,1,1057096192,2436825602,1922121474,0.0170401334762573,253,24,0,0,0,0,0,0,0
10637.219,2/18/2021 4:58:33 PM,5.0528819227665,-2.05886606299295,-2.19583697790962,5.82597822597681,1.57156827078677,0.34308125530996,5.05289030075073,-2.05888523677968,-2.1958532333374,5.8260054467018,1.57157373428345,0.343072414398193,0,0,0,0,0,0,0,0,0,0,0,0,0,0,0,0,0,0,-0.0255809654918041,-0.320616495844364,-0.123477418097299,0.000186409108065648,3.14150369609271,0.00035919067257015,-0.025578420503199,-0.320611344964877,-0.123483656247833,0.000159269408835781,3.14150125168445,0.000374252299362435,0,0,0,0,0,0,0,0,0,0,0,0,0.0860903393907404,0.0891180493308968,-0.1319811520527,-0.00142764270919708,0.00896397017605242,-8.70290958303699E-06,1,1057096192,2420048386,3616554754,0.0164466500282288,253,24,0,0,0,0,0,0,0
10637.223,2/18/2021 4:58:33 PM,5.0528819227665,-2.05886606299295,-2.19583697790962,5.82597822597681,1.57156827078677,0.34308125530996,5.05289030075073,-2.05884899715566,-2.19587802886963,5.82602976539687,1.57157373428345,0.343060493469238,0,0,0,0,0,0,0,0,0,0,0,0,0,0,0,0,0,0,-0.0255809654918041,-0.320616495844364,-0.123477418097299,0.000186409108065648,3.14150369609271,0.00035919067257015,-0.0255766946470041,-0.320616150515483,-0.123475394320148,0.000140443095466622,3.14148927035989,0.000321324979344667,0,0,0,0,0,0,0,0,0,0,0,0,0.124969245490684,0.0853591238393541,-0.0195466759490777,-0.00200812484851062,0.00936393140047623,-0.00155906188275203,1,1057096192,2470380034,1553153794,0.0189065933227539,253,24,0,0,0,0,0,0,0
10637.227,2/18/2021 4:58:33 PM,5.0528819227665,-2.05886606299295,-2.19583697790962,5.82597822597681,1.57156827078677,0.34308125530996,5.05284214019775,-2.05884899715566,-2.19587802886963,5.82602976539687,1.57157373428345,0.343048572540283,0,0,0,0,0,0,0,0,0,0,0,0,0,0,0,0,0,0,-0.0255809654918041,-0.320616495844364,-0.123477418097299,0.000186409108065648,3.14150369609271,0.00035919067257015,-0.0255921369798076,-0.320614922944912,-0.123475394321223,0.000197366288390474,3.14148926115409,0.000321320098399743,0,0,0,0,0,0,0,0,0,0,0,0,0.089815681431917,0.018801573198217,-0.00315773232447677,0.00121544852952585,0.0070194300494809,0.000279673298712492,1,1057096192,2436825602,1922121474,0.0170401334762573,253,24,0,0,0,0,0,0,0
10637.231,2/18/2021 4:58:33 PM,5.0528819227665,-2.05886606299295,-2.19583697790962,5.82597822597681,1.57156827078677,0.34308125530996,5.05287837982178,-2.05888523677968,-2.19582843780518,5.82599400261001,1.57156133651733,0.343072414398193,0,0,0,0,0,0,0,0,0,0,0,0,0,0,0,0,0,0,-0.0255809654918041,-0.320616495844364,-0.123477418097299,0.000186409108065648,3.14150369609271,0.00035919067257015,-0.0255828438982697,-0.320620530717504,-0.123480175640249,0.000178100871513198,3.14150849519195,0.000347920399355166,0,0,0,0,0,0,0,0,0,0,0,0,0.0580746411322933,0.0479589941809054,0.0210928519491352,0.00135811509076162,0.0066640750885569,-0.00272287708470282,1,1057096192,2487157250,3616816898,0.0203519463539124,253,24,0,0,0,0,0,0,0
10637.235,2/18/2021 4:58:33 PM,5.0528819227665,-2.05886606299295,-2.19583697790962,5.82597822597681,1.57156827078677,0.34308125530996,5.05289030075073,-2.05889668087148,-2.19584178924561,5.82598160484389,1.57154941558838,0.343072414398193,0,0,0,0,0,0,0,0,0,0,0,0,0,0,0,0,0,0,-0.0255809654918041,-0.320616495844364,-0.123477418097299,0.000186409108065648,3.14150369609271,0.00035919067257015,-0.0255868612481612,-0.320609390747407,-0.123486985663815,0.000159353615944119,3.14153214827639,0.000396688670557865,0,0,0,0,0,0,0,0,0,0,0,0,0.161147912114651,0.00580221728059435,0.064043742159527,0.00175167035829115,0.00703029038487234,-0.000464474628552231,1,1057096192,2420048386,630210306,0.0157670378684998,253,24,0,0,0,0,0,0,0
10637.239,2/18/2021 4:58:33 PM,5.0528819227665,-2.05886606299295,-2.19583697790962,5.82597822597681,1.57156827078677,0.34308125530996,5.05290222167969,-2.05888523677968,-2.19579410552979,5.82598160484389,1.57158517837524,0.343096256256104,0,0,0,0,0,0,0,0,0,0,0,0,0,0,0,0,0,0,-0.0255809654918041,-0.320616495844364,-0.123477418097299,0.000186409108065648,3.14150369609271,0.00035919067257015,-0.0255641119786084,-0.320631113001348,-0.123475070315692,0.000178205495253474,3.14147875626586,0.000328023534017803,0,0,0,0,0,0,0,0,0,0,0,0,0.124442703717415,0.0478145303817801,0.00231734615415438,0.00113356968866691,0.00748611045062904,-0.00085112168023627,1,1057096192,2420048386,1385185026,0.0159393548965454,253,24,0,0,0,0,0,0,0
10637.243,2/18/2021 4:58:33 PM,5.0528819227665,-2.05886606299295,-2.19583697790962,5.82597822597681,1.57156827078677,0.34308125530996,5.05291414260864,-2.05887283901357,-2.19587802886963,5.82598160484389,1.57156133651733,0.343072414398193,0,0,0,0,0,0,0,0,0,0,0,0,0,0,0,0,0,0,-0.0255809654918041,-0.320616495844364,-0.123477418097299,0.000186409108065648,3.14150369609271,0.00035919067257015,-0.0255795757702462,-0.320598225754866,-0.123486488973598,0.000121777401440049,3.14152504481522,0.000421353219048983,0,0,0,0,0,0,0,0,0,0,0,0,0.0622245982898096,0.0896582330063172,0.105044297130495,-0.00244721356323166,0.00946189438689612,-0.00183316539235657,1,1057096192,2470380034,2308128514,0.0190789103507996,253,24,0,0,0,0,0,0,0
10637.247,2/18/2021 4:58:33 PM,5.0528819227665,-2.05886606299295,-2.19583697790962,5.82597822597681,1.57156827078677,0.34308125530996,5.05290222167969,-2.05890907863759,-2.1958532333374,5.8260054467018,1.57152557373047,0.343072414398193,0,0,0,0,0,0,0,0,0,0,0,0,0,0,0,0,0,0,-0.0255809654918041,-0.320616495844364,-0.123477418097299,0.000186409108065648,3.14150369609271,0.00035919067257015,-0.025590379934167,-0.320610311767546,-0.123490651185547,0.000140583524316661,3.14155457104997,0.000384115001492666,0,0,0,0,0,0,0,0,0,0,0,0,0.123348503400486,0.00663026074349131,0.0321296464151685,0.0045621256981266,0.00684382720527329,-0.00119435246130771,1,1057096192,2487157250,3230940930,0.0202658176422119,253,24,0,0,0,0,0,0,0
10637.251,2/18/2021 4:58:33 PM,5.0528819227665,-2.05886606299295,-2.19583697790962,5.82597822597681,1.57156827078677,0.34308125530996,5.05285453796387,-2.05887283901357,-2.19584178924561,5.8260054467018,1.57157373428345,0.343060493469238,0,0,0,0,0,0,0,0,0,0,0,0,0,0,0,0,0,0,-0.0255809654918041,-0.320616495844364,-0.123477418097299,0.000186409108065648,3.14150369609271,0.00035919067257015,-0.0255868808989235,-0.32061894795409,-0.123477959818443,0.000196759451703771,3.14149329126304,0.00033894541751063,0,0,0,0,0,0,0,0,0,0,0,0,0.242119482936256,0.0167901760685876,-0.0866210832412102,0.00107331344353388,0.00729751469029152,1.85109455426139E-05,1,1057096192,2436825602,2693873410,0.017212450504303,253,24,0,0,0,0,0,0,0
10637.255,2/18/2021 4:58:33 PM,5.0528819227665,-2.05886606299295,-2.19583697790962,5.82597822597681,1.57156827078677,0.34308125530996,5.05289030075073,-2.05886139492177,-2.19582843780518,5.82599400261001,1.57159757614136,0.343072414398193,0,0,0,0,0,0,0,0,0,0,0,0,0,0,0,0,0,0,-0.0255809654918041,-0.320616495844364,-0.123477418097299,0.000186409108065648,3.14150369609271,0.00035919067257015,-0.0255666042538803,-0.320623374856349,-0.123473177810179,0.000159346214252922,3.14146640751008,0.000331763084985022,0,0,0,0,0,0,0,0,0,0,0,0,0.212331156617127,-0.0624734603121792,0.27225513605465,0.00248078245672922,0.010504054177288,-1.13960806006431E-05,1,1057096192,2369716738,3700244226,0.0145801901817322,253,24,0,0,0,0,0,0,0
10637.259,2/18/2021 4:58:33 PM,5.0528819227665,-2.05886606299295,-2.19583697790962,5.82597822597681,1.57156827078677,0.34308125530996,5.05290222167969,-2.05884899715566,-2.19584178924561,5.82598160484389,1.57156133651733,0.343084812164307,0,0,0,0,0,0,0,0,0,0,0,0,0,0,0,0,0,0,-0.0255809654918041,-0.320616495844364,-0.123477418097299,0.000186409108065648,3.14150369609271,0.00035919067257015,-0.0255752905958293,-0.320620871217328,-0.123472979904056,0.000160102028683393,3.14150500510057,0.000332386832670791,0,0,0,0,0,0,0,0,0,0,0,0,0.183381976829845,0.0269807651217467,0.0210423878279599,0.000512150825448797,0.0059022337489231,0.000188053228839873,1,1057096192,2386493954,160317186,0.0146662592887878,253,24,0,0,0,0,0,0,0
10637.263,2/18/2021 4:58:33 PM,5.0528819227665,-2.05886606299295,-2.19583697790962,5.82597822597681,1.57156827078677,0.34308125530996,5.05287837982178,-2.05888523677968,-2.19580554962158,5.8260054467018,1.57156133651733,0.343060493469238,0,0,0,0,0,0,0,0,0,0,0,0,0,0,0,0,0,0,-0.0255809654918041,-0.320616495844364,-0.123477418097299,0.000186409108065648,3.14150369609271,0.00035919067257015,-0.0255779613235546,-0.320634352332929,-0.123475094022461,0.000159439638869659,3.14149703227728,0.000297088431266688,0,0,0,0,0,0,0,0,0,0,0,0,0.058389694950324,0.108350736650532,-0.0912687744111585,-0.00228462070481285,0.00290680561477956,-0.00186416971124192,1,1057096192,2302607874,3699982082,0.0126275420188904,253,24,0,0,0,0,0,0,0
10637.267,2/18/2021 4:58:33 PM,5.0528819227665,-2.05886606299295,-2.19583697790962,5.82597822597681,1.57156827078677,0.34308125530996,5.05287837982178,-2.05887283901357,-2.19581699371338,5.82599400261001,1.57159757614136,0.343084812164307,0,0,0,0,0,0,0,0,0,0,0,0,0,0,0,0,0,0,-0.0255809654918041,-0.320616495844364,-0.123477418097299,0.000186409108065648,3.14150369609271,0.00035919067257015,-0.0255696095973821,-0.320625387801546,-0.123474485383554,0.000197579985102189,3.14146641158611,0.000331759728928715,0,0,0,0,0,0,0,0,0,0,0,0,0.0836887739737539,-0.00561306107706886,0.0065320348433984,0.00114812573469427,0.00471532588776805,-0.00168006590868506,1,1057096192,2436825602,2693873410,0.017212450504303,253,24,0,0,0,0,0,0,0
10637.271,2/18/2021 4:58:33 PM,5.0528819227665,-2.05886606299295,-2.19583697790962,5.82597822597681,1.57156827078677,0.34308125530996,5.05289030075073,-2.05890907863759,-2.19584178924561,5.82595776298598,1.57157373428345,0.343120098114014,0,0,0,0,0,0,0,0,0,0,0,0,0,0,0,0,0,0,-0.0255809654918041,-0.320616495844364,-0.123477418097299,0.000186409108065648,3.14150369609271,0.00035919067257015,-0.0255835277495141,-0.320596975670754,-0.123492657970529,0.000234254768169488,3.14152137170518,0.000463176685808653,0,0,0,0,0,0,0,0,0,0,0,0,0.0973337557002713,-0.0136325768166456,-0.0312968942614862,0.00266546240749025,0.00888023827030869,-0.00255583136097254,1,1057096192,2487157250,630472450,0.0196724534034729,253,24,0,0,0,0,0,0,0
10637.275,2/18/2021 4:58:33 PM,5.0528819227665,-2.05886606299295,-2.19583697790962,5.82597822597681,1.57156827078677,0.34308125530996,5.05289030075073,-2.05887283901357,-2.19582843780518,5.82599400261001,1.57159757614136,0.343072414398193,0,0,0,0,0,0,0,0,0,0,0,0,0,0,0,0,0,0,-0.0255809654918041,-0.320616495844364,-0.123477418097299,0.000186409108065648,3.14150369609271,0.00035919067257015,-0.0255676562552529,-0.320620403355858,-0.1234765398519,0.000159344059402604,3.14147022808783,0.00034870679198433,0,0,0,0,0,0,0,0,0,0,0,0,0.133756843263966,0.0774686734401343,0.0396602114771277,-0.00256419230089024,0.00634455698935775,-0.00185803559570586,1,1057096192,2403271170,328154882,0.015173614025116,253,24,0,0,0,0,0,0,0
10637.279,2/18/2021 4:58:33 PM,5.0528819227665,-2.05886606299295,-2.19583697790962,5.82597822597681,1.57156827078677,0.34308125530996,5.05287837982178,-2.05887283901357,-2.1958646774292,5.82598160484389,1.57154941558838,0.343108654022217,0,0,0,0,0,0,0,0,0,0,0,0,0,0,0,0,0,0,-0.0255809654918041,-0.320616495844364,-0.123477418097299,0.000186409108065648,3.14150369609271,0.00035919067257015,-0.0255922223780988,-0.320604674398428,-0.123484090273884,0.000234931613356883,3.14153181583499,0.000395284629090832,0,0,0,0,0,0,0,0,0,0,0,0,0.0704726498157463,0.0773469727997326,0.149747070924755,-0.000539374805561354,0.00517531074902679,-0.000271992574313129,1,1057096192,2453602818,1385316098,0.017892062664032,253,24,0,0,0,0,0,0,0
10637.283,2/18/2021 4:58:33 PM,5.0528819227665,-2.05886606299295,-2.19583697790962,5.82597822597681,1.57156827078677,0.34308125530996,5.05285453796387,-2.05884899715566,-2.19581699371338,5.82598160484389,1.57156133651733,0.343096256256104,0,0,0,0,0,0,0,0,0,0,0,0,0,0,0,0,0,0,-0.0255809654918041,-0.320616495844364,-0.123477418097299,0.000186409108065648,3.14150369609271,0.00035919067257015,-0.0255865319909487,-0.320631117371871,-0.123468528440133,0.00025305942141896,3.14149673049813,0.000295665213134071,0,0,0,0,0,0,0,0,0,0,0,0,0.127706583196119,-0.0486646352990943,-0.00325727180232451,0.00178829426674691,0.00664731506079124,-0.00168671850668228,1,1057096192,2420048386,999309058,0.015853226184845,253,24,0,0,0,0,0,0,0
10637.287,2/18/2021 4:58:33 PM,5.0528819227665,-2.05886606299295,-2.19583697790962,5.82597822597681,1.57156827078677,0.34308125530996,5.05290222167969,-2.05888523677968,-2.19582843780518,5.8260054467018,1.57157373428345,0.343096256256104,0,0,0,0,0,0,0,0,0,0,0,0,0,0,0,0,0,0,-0.0255809654918041,-0.320616495844364,-0.123477418097299,0.000186409108065648,3.14150369609271,0.00035919067257015,-0.0255705495813448,-0.320623111091894,-0.123479205185741,0.000178076412349053,3.14149299021416,0.000337535977510666,0,0,0,0,0,0,0,0,0,0,0,0,0.139283717288769,0.0720077599603904,-0.00400032618936524,-0.00118710965159351,0.00629205814513916,-0.00272505725255292,1,1057096192,2487157250,244596482,0.0195862650871277,253,24,0,0,0,0,0,0,0
10637.291,2/18/2021 4:58:33 PM,5.0528819227665,-2.05886606299295,-2.19583697790962,5.82597822597681,1.57156827078677,0.34308125530996,5.05287837982178,-2.05886139492177,-2.19580554962158,5.82596968391494,1.57156133651733,0.343036651611328,0,0,0,0,0,0,0,0,0,0,0,0,0,0,0,0,0,0,-0.0255809654918041,-0.320616495844364,-0.123477418097299,0.000186409108065648,3.14150369609271,0.00035919067257015,-0.0255793633220695,-0.320630461690109,-0.123471129457565,0.00012203433469064,3.1415010531444,0.000314713324474959,0,0,0,0,0,0,0,0,0,0,0,0,0.084203341640734,-0.0268994828345499,0.166947234333191,0.000704568883009462,0.00848127536272169,-0.000923069894935098,1,1057096192,2470380034,2308128514,0.0190789103507996,253,24,0,0,0,0,0,0,0
10637.295,2/18/2021 4:58:33 PM,5.0528819227665,-2.05886606299295,-2.19583697790962,5.82597822597681,1.57156827078677,0.34308125530996,5.05285453796387,-2.05886139492177,-2.19587802886963,5.82599400261001,1.57156133651733,0.343072414398193,0,0,0,0,0,0,0,0,0,0,0,0,0,0,0,0,0,0,-0.0255809654918041,-0.320616495844364,-0.123477418097299,0.000186409108065648,3.14150369609271,0.00035919067257015,-0.0255963881312168,-0.320603170275681,-0.123482073655439,0.000215390918683952,3.14151705889764,0.000386057762176156,0,0,0,0,0,0,0,0,0,0,0,0,0.130562270381297,0.0330826968203252,0.119602273666546,0.00105536924437215,0.00874695518723261,-0.00246994117799397,1,1057096192,2453602818,3616685826,0.0183994174003601,253,24,0,0,0,0,0,0,0
10637.299,2/18/2021 4:58:33 PM,5.0528819227665,-2.05886606299295,-2.19583697790962,5.82597822597681,1.57156827078677,0.34308125530996,5.05289030075073,-2.05884899715566,-2.19582843780518,5.82599400261001,1.57154941558838,0.343072414398193,0,0,0,0,0,0,0,0,0,0,0,0,0,0,0,0,0,0,-0.0255809654918041,-0.320616495844364,-0.123477418097299,0.000186409108065648,3.14150369609271,0.00035919067257015,-0.0255790542352658,-0.320631446560702,-0.123469526987892,0.000159395507574464,3.14150762572315,0.0002879688614496,0,0,0,0,0,0,0,0,0,0,0,0,0.160194806610658,0.0987449255150981,-0.0425499271055786,6.55059286970569E-05,0.0112921627028318,-0.00100519449286856,1,1057096192,2403271170,1838104322,0.0153459310531616,253,24,0,0,0,0,0,0,0
10637.303,2/18/2021 4:58:33 PM,5.0528819227665,-2.05886606299295,-2.19583697790962,5.82597822597681,1.57156827078677,0.34308125530996,5.05287837982178,-2.05888523677968,-2.19582843780518,5.82596968391494,1.57154941558838,0.343120098114014,0,0,0,0,0,0,0,0,0,0,0,0,0,0,0,0,0,0,-0.0255809654918041,-0.320616495844364,-0.123477418097299,0.000186409108065648,3.14150369609271,0.00035919067257015,-0.0255886443176534,-0.320614851891098,-0.123482240265179,0.000253038512336983,3.14152786970772,0.000377616647416778,0,0,0,0,0,0,0,0,0,0,0,0,0.0745426143768012,0.0554342454688035,-0.0616994649573053,0.00115663446624988,0.00300873253601147,-0.00106682278982476,1,1057096192,2453602818,1385316098,0.017892062664032,253,24,0,0,0,0,0,0,0
10637.307,2/18/2021 4:58:33 PM,5.0528819227665,-2.05886606299295,-2.19583697790962,5.82597822597681,1.57156827078677,0.34308125530996,5.05286598205566,-2.05883659938955,-2.19587802886963,5.82598160484389,1.57157373428345,0.343084812164307,0,0,0,0,0,0,0,0,0,0,0,0,0,0,0,0,0,0,-0.0255809654918041,-0.320616495844364,-0.123477418097299,0.000186409108065648,3.14150369609271,0.00035919067257015,-0.0255881850270645,-0.320605149627241,-0.123475845625995,0.000216895963050388,3.14150126122236,0.000374243287316139,0,0,0,0,0,0,0,0,0,0,0,0,0.0478653223426993,-0.00420900582386031,0.0366146446303401,0.00190093630709702,0.00495012936701253,-0.000880670075768358,1,1057096192,2403271170,1083129602,0.0152597427368164,253,24,0,0,0,0,0,0,0
10637.311,2/18/2021 4:58:33 PM,5.0528819227665,-2.05886606299295,-2.19583697790962,5.82597822597681,1.57156827078677,0.34308125530996,5.05286598205566,-2.05888523677968,-2.19582843780518,5.8260054467018,1.57158517837524,0.343084812164307,0,0,0,0,0,0,0,0,0,0,0,0,0,0,0,0,0,0,-0.0255809654918041,-0.320616495844364,-0.123477418097299,0.000186409108065648,3.14150369609271,0.00035919067257015,-0.0255789408363146,-0.320621035600357,-0.123479207202451,0.000217012774114667,3.14148220457378,0.000343576830808323,0,0,0,0,0,0,0,0,0,0,0,0,0.0537520773187861,0.0574759894269474,0.00340411006903184,0.00120430546720699,0.00564822768259586,-0.000865392608030091,1,1057096192,2453602818,630341378,0.0177197456359863,253,24,0,0,0,0,0,0,0
10637.315,2/18/2021 4:58:33 PM,5.0528819227665,-2.05886606299295,-2.19583697790962,5.82597822597681,1.57156827078677,0.34308125530996,5.05290222167969,-2.05889668087148,-2.19584178924561,5.82596968391494,1.57156133651733,0.343108654022217,0,0,0,0,0,0,0,0,0,0,0,0,0,0,0,0,0,0,-0.0255809654918041,-0.320616495844364,-0.123477418097299,0.000186409108065648,3.14150369609271,0.00035919067257015,-0.0255808686323204,-0.320605117091657,-0.123488000879173,0.000197554623063932,3.14152491859049,0.000420629970406392,0,0,0,0,0,0,0,0,0,0,0,0,0.0839940841166458,0.126364956943981,-0.0515009291210979,-0.00158551225886677,0.00824387540307574,-0.00249135010771166,1,1057096192,2403271170,1083129602,0.0152597427368164,253,24,0,0,0,0,0,0,0
10637.319,2/18/2021 4:58:33 PM,5.0528819227665,-2.05886606299295,-2.19583697790962,5.82597822597681,1.57156827078677,0.34308125530996,5.05286598205566,-2.05884899715566,-2.19579410552979,5.82596968391494,1.57157373428345,0.343048572540283,0,0,0,0,0,0,0,0,0,0,0,0,0,0,0,0,0,0,-0.0255809654918041,-0.320616495844364,-0.123477418097299,0.000186409108065648,3.14150369609271,0.00035919067257015,-0.0255768318957752,-0.320637403919926,-0.123465434736562,0.000160261510921499,3.14148142189829,0.000285958159672528,0,0,0,0,0,0,0,0,0,0,0,0,0.0387834117611726,-0.0451741584083431,0.0400338964855983,0.00307850594956425,0.00743554092159766,-0.00326441196225574,1,1057096192,2420048386,3985653506,0.0165327787399292,253,24,0,0,0,0,0,0,0
10637.323,2/18/2021 4:58:33 PM,5.0528819227665,-2.05886606299295,-2.19583697790962,5.82597822597681,1.57156827078677,0.34308125530996,5.05290222167969,-2.05888523677968,-2.1958532333374,5.82596968391494,1.57157373428345,0.343060493469238,0,0,0,0,0,0,0,0,0,0,0,0,0,0,0,0,0,0,-0.0255809654918041,-0.320616495844364,-0.123477418097299,0.000186409108065648,3.14150369609271,0.00035919067257015,-0.025578191087501,-0.320601563931107,-0.123486695478844,0.000121859133228493,3.14151323340086,0.00042717897574975,0,0,0,0,0,0,0,0,0,0,0,0,0.123771904344784,0.0789289282917524,0.06486647619255,-0.00066728271321374,0.00739703351706451,-0.00254415419370533,1,1057096192,2386493954,160317186,0.0146663188934326,253,24,0,0,0,0,0,0,0
10637.327,2/18/2021 4:58:33 PM,5.0528819227665,-2.05886606299295,-2.19583697790962,5.82597822597681,1.57156827078677,0.34308125530996,5.05287837982178,-2.05888523677968,-2.1958532333374,5.82595776298598,1.57157373428345,0.343060493469238,0,0,0,0,0,0,0,0,0,0,0,0,0,0,0,0,0,0,-0.0255809654918041,-0.320616495844364,-0.123477418097299,0.000186409108065648,3.14150369609271,0.00035919067257015,-0.0255870318317086,-0.320597590450871,-0.123487708470323,0.00015932204437291,3.14151722149824,0.000444819874566187,0,0,0,0,0,0,0,0,0,0,0,0,0.136341907367421,0.0767027157364978,-0.194644181277215,-0.00117977543523066,0.00898460295585642,-0.00172536183074477,1,1057096192,2453602818,3985784578,0.0184854865074158,253,24,0,0,0,0,0,0,0
10637.331,2/18/2021 4:58:33 PM,5.0528819227665,-2.05886606299295,-2.19583697790962,5.82597822597681,1.57156827078677,0.34308125530996,5.05286598205566,-2.05888523677968,-2.19588947296143,5.82599400261001,1.57157373428345,0.343072414398193,0,0,0,0,0,0,0,0,0,0,0,0,0,0,0,0,0,0,-0.0255809654918041,-0.320616495844364,-0.123477418097299,0.000186409108065648,3.14150369609271,0.00035919067257015,-0.0255932797404888,-0.320590728961144,-0.123491133571458,0.000197360636620738,3.14151715732844,0.000444854230220382,0,0,0,0,0,0,0,0,0,0,0,0,0.00296709414200332,0.0492834838891121,0.0855571185814944,-0.000394264367204362,0.00660062718271876,-0.00315280023638508,1,1057096192,2403271170,1838104322,0.0153459310531616,253,24,0,0,0,0,0,0,0
10637.335,2/18/2021 4:58:33 PM,5.0528819227665,-2.05886606299295,-2.19583697790962,5.82597822597681,1.57156827078677,0.34308125530996,5.05289030075073,-2.05887283901357,-2.19584178924561,5.82596968391494,1.57154941558838,0.343084812164307,0,0,0,0,0,0,0,0,0,0,0,0,0,0,0,0,0,0,-0.0255809654918041,-0.320616495844364,-0.123477418097299,0.000186409108065648,3.14150369609271,0.00035919067257015,-0.0255858651885802,-0.320612213285429,-0.123480994887899,0.000178845911146,3.14152818314006,0.000379031435303184,0,0,0,0,0,0,0,0,0,0,0,0,0.0869055820632807,-0.0246939225332408,-0.0154424634091616,-0.000124352584929735,0.0077955932462407,-0.00177604164440008,1,1057096192,2386493954,160317186,0.0146662592887878,253,24,0,0,0,0,0,0,0
10637.339,2/18/2021 4:58:33 PM,5.0528819227665,-2.05886606299295,-2.19583697790962,5.82597822597681,1.57156827078677,0.34308125530996,5.05290222167969,-2.05883659938955,-2.19584178924561,5.82598160484389,1.57154941558838,0.343108654022217,0,0,0,0,0,0,0,0,0,0,0,0,0,0,0,0,0,0,-0.0255809654918041,-0.320616495844364,-0.123477418097299,0.000186409108065648,3.14150369609271,0.00035919067257015,-0.0255775120386844,-0.320625282291582,-0.123469335548272,0.000197565958032462,3.14151209312351,0.000307735658888797,0,0,0,0,0,0,0,0,0,0,0,0,0.122788544641755,-0.0447476874867023,0.0858738331239476,0.00198848374872203,0.00779050124435981,-0.00225756106154337,1,1057096192,2403271170,1083129602,0.0152596831321716,253,24,0,0,0,0,0,0,0
10637.343,2/18/2021 4:58:33 PM,5.0528819227665,-2.05886606299295,-2.19583697790962,5.82597822597681,1.57156827078677,0.34308125530996,5.05289030075073,-2.05890907863759,-2.19582843780518,5.82599400261001,1.57153749465942,0.343084812164307,0,0,0,0,0,0,0,0,0,0,0,0,0,0,0,0,0,0,-0.0255809654918041,-0.320616495844364,-0.123477418097299,0.000186409108065648,3.14150369609271,0.00035919067257015,-0.0255879397198991,-0.320617042356469,-0.123487175282596,0.000178866995524247,3.14153891158854,0.000370628670754281,0,0,0,0,0,0,0,0,0,0,0,0,0.113613721942615,0.1061111302837,-0.00019771613955477,-0.00294893918238881,0.00724118671034005,-0.000501067633511798,1,1057096192,2386493954,1670266626,0.0148384571075439,253,24,0,0,0,0,0,0,0
10637.347,2/18/2021 4:58:33 PM,5.0528819227665,-2.05886606299295,-2.19583697790962,5.82597822597681,1.57156827078677,0.34308125530996,5.05287837982178,-2.05887283901357,-2.19582843780518,5.8260054467018,1.57157373428345,0.343096256256104,0,0,0,0,0,0,0,0,0,0,0,0,0,0,0,0,0,0,-0.0255809654918041,-0.320616495844364,-0.123477418097299,0.000186409108065648,3.14150369609271,0.00035919067257015,-0.025577054184489,-0.320625720519972,-0.123475562971973,0.000215528419307057,3.14148884620441,0.000319178357196198,0,0,0,0,0,0,0,0,0,0,0,0,0.132433199653605,-0.0251184006366999,0.129946924538176,0.003320858637294,0.0101540172918491,-0.00103173862125132,1,1057096192,2436825602,2693873410,0.017212450504303,253,24,0,0,0,0,0,0,0
10637.351,2/18/2021 4:58:33 PM,5.0528819227665,-2.05886606299295,-2.19583697790962,5.82597822597681,1.57156827078677,0.34308125530996,5.05289030075073,-2.05886139492177,-2.1958532333374,5.82598160484389,1.57154941558838,0.343048572540283,0,0,0,0,0,0,0,0,0,0,0,0,0,0,0,0,0,0,-0.0255809654918041,-0.320616495844364,-0.123477418097299,0.000186409108065648,3.14150369609271,0.00035919067257015,-0.0255854875794882,-0.32061326823719,-0.123478674197751,0.000121873541188469,3.1415241819086,0.000361390632105859,0,0,0,0,0,0,0,0,0,0,0,0,0.120013735097562,-0.00701432703243823,0.0674349614943627,0.00242541397581942,0.00926951310013299,-0.00155267256070753,1,1057096192,2386493954,160317186,0.0146663188934326,253,24,0,0,0,0,0,0,0
10637.355,2/18/2021 4:58:33 PM,5.0528819227665,-2.05886606299295,-2.19583697790962,5.82597822597681,1.57156827078677,0.34308125530996,5.05289030075073,-2.05884899715566,-2.1958532333374,5.82595776298598,1.57157373428345,0.343084812164307,0,0,0,0,0,0,0,0,0,0,0,0,0,0,0,0,0,0,-0.0255809654918041,-0.320616495844364,-0.123477418097299,0.000186409108065648,3.14150369609271,0.00035919067257015,-0.0255798759048394,-0.320607296096166,-0.123477062835636,0.000178803379785267,3.14150512819923,0.00039116604077929,0,0,0,0,0,0,0,0,0,0,0,0,0.195366721473564,0.0766888287675193,0.0242564521555859,0.00143849383943233,0.00960551695381055,-0.000958739187558489,1,1057096192,2453602818,3616685826,0.0183994174003601,253,24,0,0,0,0,0,0,0
10637.359,2/18/2021 4:58:33 PM,5.0528819227665,-2.05886606299295,-2.19583697790962,5.82597822597681,1.57156827078677,0.34308125530996,5.05287837982178,-2.05884899715566,-2.1958532333374,5.82598160484389,1.57154941558838,0.343108654022217,0,0,0,0,0,0,0,0,0,0,0,0,0,0,0,0,0,0,-0.0255809654918041,-0.320616495844364,-0.123477418097299,0.000186409108065648,3.14150369609271,0.00035919067257015,-0.0255881633384822,-0.320616159245293,-0.123475032135936,0.000234974908583278,3.14152004199238,0.00034303728636703,0,0,0,0,0,0,0,0,0,0,0,0,0.00517375841707781,0.0882412340474207,0.0052613224835725,-0.000587071464337283,0.0054919164740009,-0.000184236572817877,1,1057096192,2352939522,3532406530,0.0140728354454041,253,24,0,0,0,0,0,0,0
10637.363,2/18/2021 4:58:33 PM,5.0528819227665,-2.05886606299295,-2.19583697790962,5.82597822597681,1.57156827078677,0.34308125530996,5.05286598205566,-2.05886139492177,-2.19582843780518,5.82599400261001,1.57157373428345,0.343060493469238,0,0,0,0,0,0,0,0,0,0,0,0,0,0,0,0,0,0,-0.0255809654918041,-0.320616495844364,-0.123477418097299,0.000186409108065648,3.14150369609271,0.00035919067257015,-0.0255811303002645,-0.320625159727638,-0.123473173655895,0.000178842947692696,3.14148885697564,0.000319166977245189,0,0,0,0,0,0,0,0,0,0,0,0,0.15544005543578,0.0111165754365398,0.0996602884615049,0.00243061256903974,0.0101819426306444,-0.00133941619732609,1,1057096192,2420048386,1385185026,0.0159393548965454,253,24,0,0,0,0,0,0,0
10637.367,2/18/2021 4:58:33 PM,5.0528819227665,-2.05886606299295,-2.19583697790962,5.82597822597681,1.57156827078677,0.34308125530996,5.05290222167969,-2.05887283901357,-2.19582843780518,5.82599400261001,1.57157373428345,0.343096256256104,0,0,0,0,0,0,0,0,0,0,0,0,0,0,0,0,0,0,-0.0255809654918041,-0.320616495844364,-0.123477418097299,0.000186409108065648,3.14150369609271,0.00035919067257015,-0.0255705590513635,-0.320623101312562,-0.123476535694523,0.000178091610186079,3.14149268517228,0.000336116548309502,0,0,0,0,0,0,0,0,0,0,0,0,0.050010969020888,0.0970897665387854,0.123202897135277,-0.0009836552158688,0.00502153210934848,-0.00274098326813968,1,1057096192,2386493954,915291906,0.0147523880004883,253,24,0,0,0,0,0,0,0
10637.371,2/18/2021 4:58:33 PM,5.0528819227665,-2.05886606299295,-2.19583697790962,5.82597822597681,1.57156827078677,0.34308125530996,5.05287837982178,-2.05886139492177,-2.19584178924561,5.82596968391494,1.57153749465942,0.343096256256104,0,0,0,0,0,0,0,0,0,0,0,0,0,0,0,0,0,0,-0.0255809654918041,-0.320616495844364,-0.123477418097299,0.000186409108065648,3.14150369609271,0.00035919067257015,-0.0255919977255156,-0.320616076514449,-0.123477630774928,0.000215560727913716,3.1415355874344,0.000355790722724052,0,0,0,0,0,0,0,0,0,0,0,0,0.125230024305418,0.0330853853903443,0.155710275052757,0.00262552435587717,0.00855971008578967,-0.00285904160320131,1,1057096192,2453602818,3230809858,0.0183131694793701,253,24,0,0,0,0,0,0,0
10637.375,2/18/2021 4:58:33 PM,5.0528819227665,-2.05886606299295,-2.19583697790962,5.82597822597681,1.57156827078677,0.34308125530996,5.05290222167969,-2.05886139492177,-2.19582843780518,5.82595776298598,1.57159757614136,0.343096256256104,0,0,0,0,0,0,0,0,0,0,0,0,0,0,0,0,0,0,-0.0255809654918041,-0.320616495844364,-0.123477418097299,0.000186409108065648,3.14150369609271,0.00035919067257015,-0.0255664186059728,-0.320613445481361,-0.123476257961111,0.000178111567255089,3.14147855138111,0.000385397898629002,0,0,0,0,0,0,0,0,0,0,0,0,0.00388687165679295,0.0152326526292543,0.0586182654390721,0.00275624017580546,0.00647518867159744,-0.00160673031684939,1,1057096192,2352939522,3532406530,0.0140728950500488,253,24,0,0,0,0,0,0,0
10637.379,2/18/2021 4:58:33 PM,5.0528819227665,-2.05886606299295,-2.19583697790962,5.82597822597681,1.57156827078677,0.34308125530996,5.05289030075073,-2.05887283901357,-2.1958646774292,5.82596968391494,1.57157373428345,0.343084812164307,0,0,0,0,0,0,0,0,0,0,0,0,0,0,0,0,0,0,-0.0255809654918041,-0.320616495844364,-0.123477418097299,0.000186409108065648,3.14150369609271,0.00035919067257015,-0.0255827380511833,-0.320599174772315,-0.123485107726432,0.000178747364636396,3.14151290781818,0.000425771148771884,0,0,0,0,0,0,0,0,0,0,0,0,0.123261577569697,-0.0245347981056264,0.0366474403278021,0.00158369860598432,0.00923542780446044,-0.000221648174230182,1,1057096192,2503934466,1553284866,0.0208592414855957,253,24,0,0,0,0,0,0,0
10637.383,2/18/2021 4:58:33 PM,5.0528819227665,-2.05886606299295,-2.19583697790962,5.82597822597681,1.57156827078677,0.34308125530996,5.05289030075073,-2.05886139492177,-2.19582843780518,5.82598160484389,1.57156133651733,0.343072414398193,0,0,0,0,0,0,0,0,0,0,0,0,0,0,0,0,0,0,-0.0255809654918041,-0.320616495844364,-0.123477418097299,0.000186409108065648,3.14150369609271,0.00035919067257015,-0.0255780750289277,-0.320623528319924,-0.123474225207879,0.000159394755686841,3.1415046914106,0.0003309691993724,0,0,0,0,0,0,0,0,0,0,0,0,0.100440687321522,-0.124700639123849,0.17871263934443,0.00594104420505554,0.0074852322783004,0.000493037640666505,1,1057096192,2503934466,1553284866,0.0208593010902405,253,24,0,0,0,0,0,0,0
10637.387,2/18/2021 4:58:33 PM,5.0528819227665,-2.05886606299295,-2.19583697790962,5.82597822597681,1.57156827078677,0.34308125530996,5.05289030075073,-2.05887283901357,-2.19587802886963,5.82598160484389,1.57158517837524,0.343096256256104,0,0,0,0,0,0,0,0,0,0,0,0,0,0,0,0,0,0,-0.0255809654918041,-0.320616495844364,-0.123477418097299,0.000186409108065648,3.14150369609271,0.00035919067257015,-0.0255804892560097,-0.320595204332992,-0.123486493213355,0.000196655291459484,3.14150258650697,0.000433946213743935,0,0,0,0,0,0,0,0,0,0,0,0,-0.0331673062270533,0.0455745924641345,0.0704758263817578,0.00182673123323715,0.00400324702759124,-0.00220647369344431,1,1057096192,2403271170,1838104322,0.0153459310531616,253,24,0,0,0,0,0,0,0
10637.391,2/18/2021 4:58:33 PM,5.0528819227665,-2.05886606299295,-2.19583697790962,5.82597822597681,1.57156827078677,0.34308125530996,5.05289030075073,-2.05886139492177,-2.1958646774292,5.8260054467018,1.57157373428345,0.343084812164307,0,0,0,0,0,0,0,0,0,0,0,0,0,0,0,0,0,0,-0.0255809654918041,-0.320616495844364,-0.123477418097299,0.000186409108065648,3.14150369609271,0.00035919067257015,-0.0255780948896554,-0.320612236891024,-0.123478706609044,0.000178710162408627,3.14149710702862,0.000355900740260125,0,0,0,0,0,0,0,0,0,0,0,0,0.177052331936873,0.0378723778517297,-0.056545288155633,-0.000563152647749294,0.00748795665998395,-0.00172439305381486,1,1057096192,2420048386,999309058,0.015853226184845,253,24,0,0,0,0,0,0,0
10637.395,2/18/2021 4:58:33 PM,5.0528819227665,-2.05886606299295,-2.19583697790962,5.82597822597681,1.57156827078677,0.34308125530996,5.05290222167969,-2.05886139492177,-2.19584178924561,5.82594584205703,1.57157373428345,0.343072414398193,0,0,0,0,0,0,0,0,0,0,0,0,0,0,0,0,0,0,-0.0255809654918041,-0.320616495844364,-0.123477418097299,0.000186409108065648,3.14150369609271,0.00035919067257015,-0.0255765246069697,-0.320606317161688,-0.123479663610976,0.00014065324845792,3.14150944805122,0.000410216787696939,0,0,0,0,0,0,0,0,0,0,0,0,0.180283814760695,0.0101237409790534,0.0474585577272843,0.000119611321845853,0.0056211067289274,-0.00157431867352641,1,1057096192,2503934466,1922383618,0.0209454894065857,253,24,0,0,0,0,0,0,0
10637.399,2/18/2021 4:58:33 PM,5.0528819227665,-2.05886606299295,-2.19583697790962,5.82597822597681,1.57156827078677,0.34308125530996,5.05286598205566,-2.05886139492177,-2.19582843780518,5.82598160484389,1.57158517837524,0.343060493469238,0,0,0,0,0,0,0,0,0,0,0,0,0,0,0,0,0,0,-0.0255809654918041,-0.320616495844364,-0.123477418097299,0.000186409108065648,3.14150369609271,0.00035919067257015,-0.0255791458779978,-0.320620508665275,-0.123474229452836,0.000178845658170883,3.14148223215322,0.000343559193482998,0,0,0,0,0,0,0,0,0,0,0,0,-0.000851779550741767,0.0158989165873521,-0.043458988824848,0.00147431849614911,0.0031264603569538,-0.00123173070935496,1,1057096192,2352939522,4287381250,0.0141588449478149,253,24,0,0,0,0,0,0,0
10637.403,2/18/2021 4:58:33 PM,5.0528819227665,-2.05886606299295,-2.19583697790962,5.82597822597681,1.57156827078677,0.34308125530996,5.05286598205566,-2.05884899715566,-2.1958646774292,5.82596968391494,1.57153749465942,0.343048572540283,0,0,0,0,0,0,0,0,0,0,0,0,0,0,0,0,0,0,-0.0255809654918041,-0.320616495844364,-0.123477418097299,0.000186409108065648,3.14150369609271,0.00035919067257015,-0.0255985729631424,-0.320608408548697,-0.123478097391772,0.000160061047811917,3.14153907339484,0.000371327062359805,0,0,0,0,0,0,0,0,0,0,0,0,0.109266750586037,-0.0338858437826544,0.113936839336606,0.00387582812594381,0.00452976153616218,-0.00268635253792318,1,1057096192,2336162306,1837842178,0.013393223285675,253,24,0,0,0,0,0,0,0
10637.407,2/18/2021 4:58:33 PM,5.0528819227665,-2.05886606299295,-2.19583697790962,5.82597822597681,1.57156827078677,0.34308125530996,5.05289030075073,-2.05888523677968,-2.1958532333374,5.8260054467018,1.57156133651733,0.343084812164307,0,0,0,0,0,0,0,0,0,0,0,0,0,0,0,0,0,0,-0.0255809654918041,-0.320616495844364,-0.123477418097299,0.000186409108065648,3.14150369609271,0.00035919067257015,-0.0255819174612386,-0.320612589381844,-0.123483654018961,0.000178754883545024,3.14151292836405,0.000367704742501735,0,0,0,0,0,0,0,0,0,0,0,0,0.0938963374408343,0.144806485574919,0.0705762888553061,-0.00365106853231942,0.00852838904283177,-0.00127339991589236,1,1057096192,2436825602,1922121474,0.0170400738716125,253,24,0,0,0,0,0,0,0
10637.411,2/18/2021 4:58:33 PM,5.0528819227665,-2.05886606299295,-2.19583697790962,5.82597822597681,1.57156827078677,0.34308125530996,5.05291414260864,-2.05886139492177,-2.19581699371338,5.82595776298598,1.57157373428345,0.343072414398193,0,0,0,0,0,0,0,0,0,0,0,0,0,0,0,0,0,0,-0.0255809654918041,-0.320616495844364,-0.123477418097299,0.000186409108065648,3.14150369609271,0.00035919067257015,-0.0255674591225543,-0.320621455834949,-0.123474199401174,0.000121997627816696,3.141497192538,0.00035585635533592,0,0,0,0,0,0,0,0,0,0,0,0,0.137844513396616,0.0294349051954677,0.030776213082638,0.00313931695276463,0.00968265827333268,-0.00132505305437526,1,1057096192,2470380034,2308128514,0.0190789103507996,253,24,0,0,0,0,0,0,0
10637.415,2/18/2021 4:58:33 PM,5.0528819227665,-2.05886606299295,-2.19583697790962,5.82597822597681,1.57156827078677,0.34308125530996,5.05290222167969,-2.05887283901357,-2.1958532333374,5.82601784446792,1.57158517837524,0.343060493469238,0,0,0,0,0,0,0,0,0,0,0,0,0,0,0,0,0,0,-0.0255809654918041,-0.320616495844364,-0.123477418097299,0.000186409108065648,3.14150369609271,0.00035919067257015,-0.025568985928315,-0.320617218516793,-0.123478962466426,0.000121797974521969,3.141482183107,0.000343593312863808,0,0,0,0,0,0,0,0,0,0,0,0,0.193733136835994,0.123096190320158,0.0629453806095746,-0.00133710158333306,0.0116790860582002,-0.000672230752547666,1,1057096192,2420048386,3985653506,0.0165327787399292,253,24,0,0,0,0,0,0,0
10637.419,2/18/2021 4:58:33 PM,5.0528819227665,-2.05886606299295,-2.19583697790962,5.82597822597681,1.57156827078677,0.34308125530996,5.05286598205566,-2.05887283901357,-2.19581699371338,5.82595776298598,1.57156133651733,0.343084812164307,0,0,0,0,0,0,0,0,0,0,0,0,0,0,0,0,0,0,-0.0255809654918041,-0.320616495844364,-0.123477418097299,0.000186409108065648,3.14150369609271,0.00035919067257015,-0.0255874493209861,-0.320618496914617,-0.123477559153962,0.000217129045013684,3.1415126800376,0.000366249384189735,0,0,0,0,0,0,0,0,0,0,0,0,0.0785709988713777,0.0165969497467018,-0.0236487041261572,0.00465452541339304,0.00989872294349972,-0.00371057694692464,1,1057096192,2369716738,3700244226,0.0145801901817322,253,24,0,0,0,0,0,0,0
10637.423,2/18/2021 4:58:33 PM,5.0528819227665,-2.05886606299295,-2.19583697790962,5.82597822597681,1.57156827078677,0.34308125530996,5.05291414260864,-2.05884899715566,-2.1958532333374,5.82595776298598,1.57157373428345,0.343060493469238,0,0,0,0,0,0,0,0,0,0,0,0,0,0,0,0,0,0,-0.0255809654918041,-0.320616495844364,-0.123477418097299,0.000186409108065648,3.14150369609271,0.00035919067257015,-0.0255722346987006,-0.320607915238533,-0.123477062838201,0.000103155067899472,3.14150513153568,0.000391166004538951,0,0,0,0,0,0,0,0,0,0,0,0,0.160090974324691,0.0708782400828077,0.209030150276618,-0.00178515127197748,0.0112240316069282,-0.0011854769525159,1,1057096192,2503934466,1553284866,0.0208593010902405,253,24,0,0,0,0,0,0,0
10637.427,2/18/2021 4:58:33 PM,5.0528819227665,-2.05886606299295,-2.19583697790962,5.82597822597681,1.57156827078677,0.34308125530996,5.05290222167969,-2.05887283901357,-2.19584178924561,5.82599400261001,1.57158517837524,0.343072414398193,0,0,0,0,0,0,0,0,0,0,0,0,0,0,0,0,0,0,-0.0255809654918041,-0.320616495844364,-0.123477418097299,0.000186409108065648,3.14150369609271,0.00035919067257015,-0.0255695112409086,-0.320615781008636,-0.12347893450979,0.000140587029642569,3.14148635661622,0.000361931166761724,0,0,0,0,0,0,0,0,0,0,0,0,0.130828311947429,-0.00675245218522172,0.042794182333549,0.00439657373381226,0.00643630715141327,-0.000702635258079137,1,1057096192,2403271170,1838104322,0.0153459310531616,253,24,0,0,0,0,0,0,0
10637.431,2/18/2021 4:58:33 PM,5.0528819227665,-2.05886606299295,-2.19583697790962,5.82597822597681,1.57156827078677,0.34308125530996,5.05289030075073,-2.05888523677968,-2.19582843780518,5.8260054467018,1.57158517837524,0.343060493469238,0,0,0,0,0,0,0,0,0,0,0,0,0,0,0,0,0,0,-0.0255809654918041,-0.320616495844364,-0.123477418097299,0.000186409108065648,3.14150369609271,0.00035919067257015,-0.0255711464185031,-0.32062166691368,-0.123479207204794,0.000140616026321939,3.14148220892231,0.000343576830018745,0,0,0,0,0,0,0,0,0,0,0,0,0.0529051850083681,0.0658577665476605,0.121360831325538,-0.000365218468759409,0.004661313102418,-0.00220720934552951,1,1057096192,2470380034,1922252546,0.0189927816390991,253,24,0,0,0,0,0,0,0
10637.435,2/18/2021 4:58:33 PM,5.0528819227665,-2.05886606299295,-2.19583697790962,5.82597822597681,1.57156827078677,0.34308125530996,5.05289030075073,-2.05884899715566,-2.19584178924561,5.82594584205703,1.57156133651733,0.343084812164307,0,0,0,0,0,0,0,0,0,0,0,0,0,0,0,0,0,0,-0.0255809654918041,-0.320616495844364,-0.123477418097299,0.000186409108065648,3.14150369609271,0.00035919067257015,-0.025582703807831,-0.320610475820092,-0.123476019389091,0.000178866059550271,3.14151698378518,0.000385312479615327,0,0,0,0,0,0,0,0,0,0,0,0,0.0713700900570395,0.0245204432985433,-0.0305380808173319,0.00157185175927329,0.00767489895662155,-0.00155113337914352,1,1057096192,2352939522,3532406530,0.0140728354454041,253,24,0,0,0,0,0,0,0
10637.439,2/18/2021 4:58:33 PM,5.0528819227665,-2.05886606299295,-2.19583697790962,5.82597822597681,1.57156827078677,0.34308125530996,5.05284214019775,-2.05886139492177,-2.19584178924561,5.82598160484389,1.57158517837524,0.343096256256104,0,0,0,0,0,0,0,0,0,0,0,0,0,0,0,0,0,0,-0.0255809654918041,-0.320616495844364,-0.123477418097299,0.000186409108065648,3.14150369609271,0.00035919067257015,-0.0255889645228998,-0.320613708488864,-0.123476626271979,0.000272425121285109,3.14148667661046,0.000363332059090018,0,0,0,0,0,0,0,0,0,0,0,0,0.0840358999706492,-0.00812838732927205,0.1682531062414,0.00345799426332295,0.00974123910516366,-0.00141063072773842,1,1057096192,2453602818,999440130,0.017805814743042,253,24,0,0,0,0,0,0,0
10637.443,2/18/2021 4:58:33 PM,5.0528819227665,-2.05886606299295,-2.19583697790962,5.82597822597681,1.57156827078677,0.34308125530996,5.05286598205566,-2.05884899715566,-2.19587802886963,5.82599400261001,1.57157373428345,0.343084812164307,0,0,0,0,0,0,0,0,0,0,0,0,0,0,0,0,0,0,-0.0255809654918041,-0.320616495844364,-0.123477418097299,0.000186409108065648,3.14150369609271,0.00035919067257015,-0.0255880797892319,-0.320605428521125,-0.123478433930508,0.000216879712534158,3.14150124674597,0.000374251362404068,0,0,0,0,0,0,0,0,0,0,0,0,0.0720842757803299,-0.0225509240723895,-0.0371084171061583,0.00433971140929208,0.00804458493202369,-0.00170351704061823,1,1057096192,2470380034,2694004482,0.0191650986671448,253,24,0,0,0,0,0,0,0
10637.447,2/18/2021 4:58:33 PM,5.0528819227665,-2.05886606299295,-2.19583697790962,5.82597822597681,1.57156827078677,0.34308125530996,5.05286598205566,-2.05886139492177,-2.19582843780518,5.82599400261001,1.57157373428345,0.343096256256104,0,0,0,0,0,0,0,0,0,0,0,0,0,0,0,0,0,0,-0.0255809654918041,-0.320616495844364,-0.123477418097299,0.000186409108065648,3.14150369609271,0.00035919067257015,-0.0255811263661113,-0.320625145960598,-0.123473173652689,0.000235017146148035,3.14148885690836,0.000319169891495464,0,0,0,0,0,0,0,0,0,0,0,0,0.0259106256946983,-0.052340729419236,0.108143703186213,0.00145145561783031,0.00633728421216614,-0.0011065901096949,1,1057096192,2436825602,2307997442,0.0171263217926025,253,24,0,0,0,0,0,0,0
10637.451,2/18/2021 4:58:33 PM,5.0528819227665,-2.05886606299295,-2.19583697790962,5.82597822597681,1.57156827078677,0.34308125530996,5.05286598205566,-2.05886139492177,-2.1958532333374,5.8260054467018,1.57157373428345,0.343108654022217,0,0,0,0,0,0,0,0,0,0,0,0,0,0,0,0,0,0,-0.0255809654918041,-0.320616495844364,-0.123477418097299,0.000186409108065648,3.14150369609271,0.00035919067257015,-0.0255840217971661,-0.320616899683982,-0.123476652239408,0.000254396124920108,3.14149328735487,0.000338953473029169,0,0,0,0,0,0,0,0,0,0,0,0,0.0638641274243677,-0.0176810385971214,0.21202644405897,0.00174014502925553,0.0102782204634934,-0.00270485755095528,1,1057096192,2453602818,1385316098,0.017892062664032,253,24,0,0,0,0,0,0,0
10637.455,2/18/2021 4:58:33 PM,5.0528819227665,-2.05886606299295,-2.19583697790962,5.82597822597681,1.57156827078677,0.34308125530996,5.05290222167969,-2.05886139492177,-2.19582843780518,5.82595776298598,1.57154941558838,0.343060493469238,0,0,0,0,0,0,0,0,0,0,0,0,0,0,0,0,0,0,-0.0255809654918041,-0.320616495844364,-0.123477418097299,0.000186409108065648,3.14150369609271,0.00035919067257015,-0.0255800121167923,-0.320618312030417,-0.123476249396175,0.000121982121849141,3.14152390753943,0.000359957009231742,0,0,0,0,0,0,0,0,0,0,0,0,0.0918254794471916,-0.0450713306446891,0.243166908827913,0.00320935576244883,0.0104834559298369,-0.00220125795202692,1,1057096192,2420048386,1385185026,0.0159393548965454,253,24,0,0,0,0,0,0,0
10637.459,2/18/2021 4:58:33 PM,5.0528819227665,-2.05886606299295,-2.19583697790962,5.82597822597681,1.57156827078677,0.34308125530996,5.05289030075073,-2.05886139492177,-2.1958646774292,5.82599400261001,1.57157373428345,0.343084812164307,0,0,0,0,0,0,0,0,0,0,0,0,0,0,0,0,0,0,-0.0255809654918041,-0.320616495844364,-0.123477418097299,0.000186409108065648,3.14150369609271,0.00035919067257015,-0.0255792440464685,-0.320609007933911,-0.123479679246655,0.000178722819519306,3.1415009409038,0.000372837149119734,0,0,0,0,0,0,0,0,0,0,0,0,0.149250553269007,0.0783961385897804,0.190091551020307,-0.000435227922738726,0.00944354723503619,-0.0013263415704544,1,1057096192,2336162306,1082867458,0.0133071541786194,253,24,0,0,0,0,0,0,0
10637.463,2/18/2021 4:58:33 PM,5.0528819227665,-2.05886606299295,-2.19583697790962,5.82597822597681,1.57156827078677,0.34308125530996,5.05286598205566,-2.05886139492177,-2.1958532333374,5.82604168632583,1.57156133651733,0.343084812164307,0,0,0,0,0,0,0,0,0,0,0,0,0,0,0,0,0,0,-0.0255809654918041,-0.320616495844364,-0.123477418097299,0.000186409108065648,3.14150369609271,0.00035919067257015,-0.0255838840608279,-0.320628382983357,-0.123473569611589,0.000216918783417389,3.14149282262622,0.000278771306217956,0,0,0,0,0,0,0,0,0,0,0,0,0.10695411336841,0.0417079744121589,0.144845050564987,-0.000351588965436387,0.00720136971857078,-0.00168757577228319,1,1057096192,2470380034,2694004482,0.0191650986671448,253,24,0,0,0,0,0,0,0
10637.467,2/18/2021 4:58:33 PM,5.0528819227665,-2.05886606299295,-2.19583697790962,5.82597822597681,1.57156827078677,0.34308125530996,5.05290222167969,-2.05886139492177,-2.19582843780518,5.82598160484389,1.57157373428345,0.343072414398193,0,0,0,0,0,0,0,0,0,0,0,0,0,0,0,0,0,0,-0.0255809654918041,-0.320616495844364,-0.123477418097299,0.000186409108065648,3.14150369609271,0.00035919067257015,-0.0255707545898082,-0.320622583980591,-0.123474227435915,0.000140658151858322,3.14149301738378,0.000337518583267771,0,0,0,0,0,0,0,0,0,0,0,0,0.104893269144116,-0.0386143778947424,0.189145778664911,0.00226318029985965,0.00758461212915669,-0.0025849191026758,1,1057096192,2453602818,999440130,0.0178058743476868,253,24,0,0,0,0,0,0,0
10637.471,2/18/2021 4:58:33 PM,5.0528819227665,-2.05886606299295,-2.19583697790962,5.82597822597681,1.57156827078677,0.34308125530996,5.05287837982178,-2.05888523677968,-2.19584178924561,5.8260054467018,1.57154941558838,0.343084812164307,0,0,0,0,0,0,0,0,0,0,0,0,0,0,0,0,0,0,-0.0255809654918041,-0.320616495844364,-0.123477418097299,0.000186409108065648,3.14150369609271,0.00035919067257015,-0.0255872358373637,-0.320618779594833,-0.123481597535547,0.000197529183244194,3.14152033870947,0.000344460055000157,0,0,0,0,0,0,0,0,0,0,0,0,0.1469630020939,0.102525901465213,0.136839046399767,-0.000941198854450795,0.00855295035871111,-0.00158398149857226,1,1057096192,2420048386,3616554754,0.0164466500282288,253,24,0,0,0,0,0,0,0
10637.475,2/18/2021 4:58:33 PM,5.0528819227665,-2.05886606299295,-2.19583697790962,5.82597822597681,1.57156827078677,0.34308125530996,5.05285453796387,-2.05887283901357,-2.1958646774292,5.82598160484389,1.57157373428345,0.343084812164307,0,0,0,0,0,0,0,0,0,0,0,0,0,0,0,0,0,0,-0.0255809654918041,-0.320616495844364,-0.123477418097299,0.000186409108065648,3.14150369609271,0.00035919067257015,-0.0255930066247145,-0.320601623231021,-0.123484094689082,0.000234908736249459,3.14150890614692,0.000408126569996475,0,0,0,0,0,0,0,0,0,0,0,0,0.15816694304467,-0.0410538565622953,0.212518975146365,0.00363782273124437,0.00824871082011812,-0.00111089744361976,1,1057096192,2453602818,630341378,0.0177197456359863,253,24,0,0,0,0,0,0,0
10637.479,2/18/2021 4:58:33 PM,5.0528819227665,-2.05886606299295,-2.19583697790962,5.82597822597681,1.57156827078677,0.34308125530996,5.05290222167969,-2.05884899715566,-2.1958646774292,5.82596968391494,1.57162141799927,0.343096256256104,0,0,0,0,0,0,0,0,0,0,0,0,0,0,0,0,0,0,-0.0255809654918041,-0.320616495844364,-0.123477418097299,0.000186409108065648,3.14150369609271,0.00035919067257015,-0.0255632681267528,-0.320600861329519,-0.123478112166644,0.000177958782717641,3.14146004312051,0.000415659324290361,0,0,0,0,0,0,0,0,0,0,0,0,-0.00306038735759667,0.0440476643965619,-0.0675761613212138,0.00219456330029649,0.0030755164093073,-0.00172001058078399,1,1057096192,2319385090,915029762,0.0127997994422913,253,24,0,0,0,0,0,0,0
10637.483,2/18/2021 4:58:33 PM,5.0528819227665,-2.05886606299295,-2.19583697790962,5.82597822597681,1.57156827078677,0.34308125530996,5.05290222167969,-2.05888523677968,-2.19584178924561,5.82596968391494,1.57157373428345,0.343084812164307,0,0,0,0,0,0,0,0,0,0,0,0,0,0,0,0,0,0,-0.0255809654918041,-0.320616495844364,-0.123477418097299,0.000186409108065648,3.14150369609271,0.00035919067257015,-0.02557632086734,-0.320606848650106,-0.12348464130086,0.000160095840785506,3.14150942090453,0.000410233124589766,0,0,0,0,0,0,0,0,0,0,0,0,-0.0138862199945491,0.0178218693076347,0.105000748409065,2.40159675051581E-05,0.000838993337905393,-0.00254965993900239,1,1057096192,2369716738,2945269506,0.014494001865387,253,24,0,0,0,0,0,0,0
10637.487,2/18/2021 4:58:33 PM,5.0528819227665,-2.05886606299295,-2.19583697790962,5.82597822597681,1.57156827078677,0.34308125530996,5.05289030075073,-2.05889668087148,-2.19584178924561,5.82599400261001,1.57156133651733,0.343072414398193,0,0,0,0,0,0,0,0,0,0,0,0,0,0,0,0,0,0,-0.0255809654918041,-0.320616495844364,-0.123477418097299,0.000186409108065648,3.14150369609271,0.00035919067257015,-0.0255822525489365,-0.320611687664768,-0.123485934248575,0.000159329117576083,3.14151676790678,0.000384637108526516,0,0,0,0,0,0,0,0,0,0,0,0,0.0876047202366079,-0.0054166996954559,0.167368769043021,0.00391454291494511,0.00662648320113344,-0.00113319835699456,1,1057096192,2470380034,1922252546,0.0189927816390991,253,24,0,0,0,0,0,0,0
10637.491,2/18/2021 4:58:33 PM,5.0528819227665,-2.05886606299295,-2.19583697790962,5.82597822597681,1.57156827078677,0.34308125530996,5.05290222167969,-2.05884899715566,-2.19584178924561,5.82596968391494,1.57158517837524,0.343060493469238,0,0,0,0,0,0,0,0,0,0,0,0,0,0,0,0,0,0,-0.0255809654918041,-0.320616495844364,-0.123477418097299,0.000186409108065648,3.14150369609271,0.00035919067257015,-0.025569762831743,-0.320615114739491,-0.123473997354302,0.000121894103623474,3.14148654360184,0.000362620325830925,0,0,0,0,0,0,0,0,0,0,0,0,0.240183097156325,0.0286122635027425,0.0981905914304106,-0.00122491454667247,0.00881555143128362,-0.000303681385667049,1,1057096192,2453602818,999440130,0.0178058743476868,253,24,0,0,0,0,0,0,0
10637.495,2/18/2021 4:58:33 PM,5.0528819227665,-2.05886606299295,-2.19583697790962,5.82597822597681,1.57156827078677,0.34308125530996,5.05289030075073,-2.05887283901357,-2.19584178924561,5.82601784446792,1.57158517837524,0.343060493469238,0,0,0,0,0,0,0,0,0,0,0,0,0,0,0,0,0,0,-0.0255809654918041,-0.320616495844364,-0.123477418097299,0.000186409108065648,3.14150369609271,0.00035919067257015,-0.0255709405237914,-0.320622207722978,-0.123476908056568,0.000140560541982724,3.14147836667688,0.000326645077462663,0,0,0,0,0,0,0,0,0,0,0,0,0.0713412856691226,0.100386674559958,0.0804364872218025,-0.00164190169281068,0.00536176173350517,-0.00169977418436983,1,1057096192,2436825602,2307997442,0.0171263217926025,253,24,0,0,0,0,0,0,0
10637.499,2/18/2021 4:58:33 PM,5.0528819227665,-2.05886606299295,-2.19583697790962,5.82597822597681,1.57156827078677,0.34308125530996,5.05285453796387,-2.05884899715566,-2.1958532333374,5.82592152336196,1.57158517837524,0.343060493469238,0,0,0,0,0,0,0,0,0,0,0,0,0,0,0,0,0,0,-0.0255809654918041,-0.320616495844364,-0.123477418097299,0.000186409108065648,3.14150369609271,0.00035919067257015,-0.0255917537805203,-0.320595012196195,-0.123480144479665,0.00019680895691784,3.14150647996728,0.000450838821940318,0,0,0,0,0,0,0,0,0,0,0,0,0.127129487224698,0.085805179165683,0.142889693748141,-0.000162571731431457,0.00797930870965067,-0.000869515441411605,1,1057096192,2453602818,3985784578,0.0184854865074158,253,24,0,0,0,0,0,0,0
10637.503,2/18/2021 4:58:33 PM,5.0528819227665,-2.05886606299295,-2.19583697790962,5.82597822597681,1.57156827078677,0.34308125530996,5.05289030075073,-2.05887283901357,-2.1958646774292,5.82598160484389,1.57158517837524,0.343072414398193,0,0,0,0,0,0,0,0,0,0,0,0,0,0,0,0,0,0,-0.0255809654918041,-0.320616495844364,-0.123477418097299,0.000186409108065648,3.14150369609271,0.00035919067257015,-0.0255783131444737,-0.320601389977681,-0.123484096705734,0.000159249829613182,3.14149813574949,0.000414172576432017,0,0,0,0,0,0,0,0,0,0,0,0,0.101680800323714,0.0714099634907251,0.14525698279629,-0.000166133981344264,0.00565145934535095,-0.00262204247922453,1,1057096192,2420048386,999309058,0.015853226184845,253,24,0,0,0,0,0,0,0
10637.507,2/18/2021 4:58:33 PM,5.0528819227665,-2.05886606299295,-2.19583697790962,5.82597822597681,1.57156827078677,0.34308125530996,5.05289030075073,-2.05887283901357,-2.19584178924561,5.82596968391494,1.57157373428345,0.343096256256104,0,0,0,0,0,0,0,0,0,0,0,0,0,0,0,0,0,0,-0.0255809654918041,-0.320616495844364,-0.123477418097299,0.000186409108065648,3.14150369609271,0.00035919067257015,-0.0255790018369272,-0.320609758546886,-0.12348099929982,0.000196799074025943,3.1415052800159,0.000391877183607636,0,0,0,0,0,0,0,0,0,0,0,0,0.173327209789422,0.0427103752795163,0.187091957252068,0.0014705112472286,0.00705971702336804,-0.00228081383940581,1,1057096192,2436825602,2693873410,0.0172123908996582,253,24,0,0,0,0,0,0,0
10637.511,2/18/2021 4:58:33 PM,5.0528819227665,-2.05886606299295,-2.19583697790962,5.82597822597681,1.57156827078677,0.34308125530996,5.05287837982178,-2.05887283901357,-2.19584178924561,5.82596968391494,1.57156133651733,0.343060493469238,0,0,0,0,0,0,0,0,0,0,0,0,0,0,0,0,0,0,-0.0255809654918041,-0.320616495844364,-0.123477418097299,0.000186409108065648,3.14150369609271,0.00035919067257015,-0.0255863260719539,-0.320610716513455,-0.123480997075838,0.00015936089933972,3.1415169525543,0.00038532585246424,0,0,0,0,0,0,0,0,0,0,0,0,0.00818780823804141,-0.083784255988559,-0.102050363398035,0.00583039432032391,0.00592474275083819,-0.00180611721081626,1,1057096192,2403271170,1083129602,0.0152597427368164,253,24,0,0,0,0,0,0,0
10637.515,2/18/2021 4:58:33 PM,5.0528819227665,-2.05886606299295,-2.19583697790962,5.82597822597681,1.57156827078677,0.34308125530996,5.05289030075073,-2.05888523677968,-2.19584178924561,5.8260054467018,1.57157373428345,0.343096256256104,0,0,0,0,0,0,0,0,0,0,0,0,0,0,0,0,0,0,-0.0255809654918041,-0.320616495844364,-0.123477418097299,0.000186409108065648,3.14150369609271,0.00035919067257015,-0.0255765504102212,-0.320616629857063,-0.123481601947652,0.000196756935720906,3.14149743803129,0.000357306773102491,0,0,0,0,0,0,0,0,0,0,0,0,0.0306342832546281,0.0716994132653911,0.218233053363027,0.000252107238821635,0.00533368195021428,-0.00194522859099667,1,1057096192,2520711682,244727554,0.0215389132499695,253,24,0,0,0,0,0,0,0
10637.519,2/18/2021 4:58:33 PM,5.0528819227665,-2.05886606299295,-2.19583697790962,5.82597822597681,1.57156827078677,0.34308125530996,5.05290222167969,-2.05887283901357,-2.19582843780518,5.82596968391494,1.57158517837524,0.343048572540283,0,0,0,0,0,0,0,0,0,0,0,0,0,0,0,0,0,0,-0.0255809654918041,-0.320616495844364,-0.123477418097299,0.000186409108065648,3.14150369609271,0.00035919067257015,-0.0255697771244031,-0.320615105041035,-0.123478604620229,0.000103208755336718,3.1414900521153,0.000378147258354797,0,0,0,0,0,0,0,0,0,0,0,0,0.108213734430296,0.0183092651844249,0.0220308975192994,0.00268172679752698,0.00628881277608443,-0.00250988528585154,1,1057096192,2420048386,999309058,0.015853226184845,253,24,0,0,0,0,0,0,0
10637.523,2/18/2021 4:58:33 PM,5.0528819227665,-2.05886606299295,-2.19583697790962,5.82597822597681,1.57156827078677,0.34308125530996,5.05287837982178,-2.05886139492177,-2.19584178924561,5.82599400261001,1.57156133651733,0.343060493469238,0,0,0,0,0,0,0,0,0,0,0,0,0,0,0,0,0,0,-0.0255809654918041,-0.320616495844364,-0.123477418097299,0.000186409108065648,3.14150369609271,0.00035919067257015,-0.0255828322163153,-0.320620549627876,-0.123475568300375,0.00015933677934687,3.1415049855687,0.000332391596318985,0,0,0,0,0,0,0,0,0,0,0,0,0.133154445060342,-0.0539557630466553,0.340475003801267,0.00280341561466349,0.00739757949347768,-0.000113201486346423,1,1057096192,2520711682,2845196034,0.0221323370933533,253,24,0,0,0,0,0,0,0
10637.527,2/18/2021 4:58:33 PM,5.0528819227665,-2.05886606299295,-2.19583697790962,5.82597822597681,1.57156827078677,0.34308125530996,5.05289030075073,-2.05886139492177,-2.19582843780518,5.82598160484389,1.57157373428345,0.343072414398193,0,0,0,0,0,0,0,0,0,0,0,0,0,0,0,0,0,0,-0.0255809654918041,-0.320616495844364,-0.123477418097299,0.000186409108065648,3.14150369609271,0.00035919067257015,-0.0255745767070519,-0.320622279130663,-0.123474227435915,0.000159382910903752,3.14149301520912,0.000337517652928205,0,0,0,0,0,0,0,0,0,0,0,0,0.0947559834972383,-0.00602887113988414,0.153378083107292,0.00174556292427145,0.00945988019147942,-0.0024629868557429,1,1057096192,2453602818,630341378,0.0177197456359863,253,24,0,0,0,0,0,0,0
10637.531,2/18/2021 4:58:33 PM,5.0528819227665,-2.05886606299295,-2.19583697790962,5.82597822597681,1.57156827078677,0.34308125530996,5.05285453796387,-2.05884899715566,-2.19584178924561,5.82598160484389,1.57159757614136,0.343060493469238,0,0,0,0,0,0,0,0,0,0,0,0,0,0,0,0,0,0,-0.0255809654918041,-0.320616495844364,-0.123477418097299,0.000186409108065648,3.14150369609271,0.00035919067257015,-0.0255803556420847,-0.320616009578548,-0.123472986289543,0.000196767690083417,3.14147086462678,0.000351522083447288,0,0,0,0,0,0,0,0,0,0,0,0,0.100592523384166,-0.12567027113516,0.203892501002083,0.00762257175204066,0.00576432691174475,-0.000644400857382358,1,1057096192,2403271170,328154882,0.0151736736297607,253,24,0,0,0,0,0,0,0
10637.535,2/18/2021 4:58:33 PM,5.0528819227665,-2.05886606299295,-2.19583697790962,5.82597822597681,1.57156827078677,0.34308125530996,5.05289030075073,-2.05888523677968,-2.19582843780518,5.8260054467018,1.57158517837524,0.343060493469238,0,0,0,0,0,0,0,0,0,0,0,0,0,0,0,0,0,0,-0.0255809654918041,-0.320616495844364,-0.123477418097299,0.000186409108065648,3.14150369609271,0.00035919067257015,-0.0255711464185031,-0.32062166691368,-0.123479207204794,0.000140616026321939,3.14148220892231,0.000343576830018745,0,0,0,0,0,0,0,0,0,0,0,0,0.231584260804397,-0.0175942816708705,0.227738898825847,0.00348351864561369,0.00905618236192656,-0.000785294769835235,1,1057096192,2470380034,1922252546,0.0189927816390991,253,24,0,0,0,0,0,0,0
10637.539,2/18/2021 4:58:33 PM,5.0528819227665,-2.05886606299295,-2.19583697790962,5.82597822597681,1.57156827078677,0.34308125530996,5.05290222167969,-2.05888523677968,-2.1958646774292,5.82594584205703,1.57158517837524,0.343084812164307,0,0,0,0,0,0,-4.61701621379262E-10,0,0,0,0,0,0,0,0,0,0,0,-0.0255809654918041,-0.320616495844364,-0.123477418097299,0.000186409108065648,3.14150369609271,0.00035919067257015,-0.0255792209610117,-0.320588380238774,-0.123490777460568,0.000160036167697407,3.14151425700337,0.000485456966770701,0,0,0,0,0,0,-1.48016174951594E-10,1.18099677913175E-11,0,0,0,-4.61701621379262E-10,0.149919478170291,0.060137703618306,0.248546638010421,0.00116349995476068,0.00766535492062914,-7.01843171360697E-05,1,1057096192,2352939522,3532406530,0.0140728950500488,253,24,0,0,0,0,0,0,0
10637.543,2/18/2021 4:58:33 PM,5.0528819227665,-2.05886606299295,-2.19583697790962,5.82597822597681,1.57156827078677,0.34308125530996,5.05286598205566,-2.05884899715566,-2.19584178924561,5.82598160484389,1.57157373428345,0.343108654022217,0,0,0,0,0,0,-4.3950012086711E-14,0,0,0,0,0,0,0,0,0,0,0,-0.0255809654918041,-0.320616495844364,-0.123477418097299,0.000186409108065648,3.14150369609271,0.00035919067257015,-0.0255834087837204,-0.320618685885618,-0.123472982129778,0.000254462975679667,3.14149332138232,0.000338934541546633,0,0,0,0,0,0,-1.40911951198983E-14,1.12439112526378E-15,0,0,0,-4.3950012086711E-14,0.085515979307349,0.0623492981160127,0.269036826580086,0.000667625292384945,0.00746454592266074,-0.0029154440203403,1,1057096192,2403271170,2593079042,0.0154318809509277,253,24,0,0,0,0,0,0,0
10637.547,2/18/2021 4:58:33 PM,5.0528819227665,-2.05886606299295,-2.19583697790962,5.82597822597681,1.57156827078677,0.34308125530996,5.05289030075073,-2.05887283901357,-2.19582843780518,5.82598160484389,1.57157373428345,0.343084812164307,0,0,0,0,0,0,-4.18366198979211E-18,0,0,0,0,0,0,0,0,0,0,0,-0.0255809654918041,-0.320616495844364,-0.123477418097299,0.000186409108065648,3.14150369609271,0.00035919067257015,-0.0255756273487139,-0.320619302846263,-0.123477589434138,0.000178854313358506,3.14149683610608,0.000354462442388584,0,0,0,0,0,0,-1.34136279051156E-18,1.06999780003902E-19,0,0,0,-4.18366198979211E-18,0.0729557936826584,-0.00808336333622001,0.158854025996966,0.0023261709824704,0.00843808037208755,-0.00266258208306063,1,1057096192,2487157250,999571202,0.0197585225105286,253,24,0,0,0,0,0,0,0
10637.551,2/18/2021 4:58:33 PM,5.0528819227665,-2.05886606299295,-2.19583697790962,5.82597822597681,1.57156827078677,0.34308125530996,5.05290222167969,-2.05886139492177,-2.1958532333374,5.8260054467018,1.57156133651733,0.343036651611328,0,0,0,0,0,0,-3.98248488904678E-22,0,0,0,0,0,0,0,0,0,0,0,-0.0255809654918041,-0.320616495844364,-0.123477418097299,0.000186409108065648,3.14150369609271,0.00035919067257015,-0.0255759089709456,-0.320619103577957,-0.123476650018208,8.43868692370145E-05,3.14150496891662,0.00033240244966824,0,0,0,0,0,0,-1.27686073513894E-22,1.01855671000427E-23,0,0,0,-3.98248488904678E-22,0.0349639996242016,0.0615971823585674,0.0859165033317856,-0.00134706854869353,0.00738228660181537,-0.00203869379981557,1,1057096192,2470380034,2694004482,0.0191651582717896,253,24,0,0,0,0,0,0,0
10637.555,2/18/2021 4:58:33 PM,5.0528819227665,-2.05886606299295,-2.19583697790962,5.82597822597681,1.57156827078677,0.34308125530996,5.05289030075073,-2.05888523677968,-2.19581699371338,5.82599400261001,1.57157373428345,0.343084812164307,0,0,0,0,0,0,-3.79098170545558E-26,0,0,0,0,0,0,0,0,0,0,0,-0.0255809654918041,-0.320616495844364,-0.123477418097299,0.000186409108065648,3.14150369609271,0.00035919067257015,-0.0255736546594139,-0.320624875736862,-0.123478123469144,0.000178875992257784,3.14149300721597,0.000337523293794692,0,0,0,0,0,0,-1.21548303823241E-26,9.69492569554767E-28,0,0,0,-3.79098170545558E-26,0.153891203690731,0.0469013461786214,-0.0732985111111945,0.00157481549153436,0.0094058147805179,-0.000786623635271902,1,1057096192,2420048386,1385185026,0.0159393548965454,253,24,0,0,0,0,0,0,0
10637.559,2/18/2021 4:58:33 PM,5.0528819227665,-2.05886606299295,-2.19583697790962,5.82597822597681,1.57156827078677,0.34308125530996,5.05286598205566,-2.05887283901357,-2.19582843780518,5.82595776298598,1.57159757614136,0.343060493469238,0,0,0,0,0,0,-3.60868715917128E-30,0,0,0,0,0,0,0,0,0,0,0,-0.0255809654918041,-0.320616495844364,-0.123477418097299,0.000186409108065648,3.14150369609271,0.00035919067257015,-0.0255790933749905,-0.320609560961183,-0.123479619882497,0.000178858422834444,3.14148236260014,0.000402335394374968,0,0,0,0,0,0,-1.15697960574816E-30,9.23069458055714E-32,0,0,0,-3.60868715917128E-30,0.184084222989775,0.054717748603595,0.22124026960666,0.000315413550877975,0.0090083474846981,-0.00187245126750458,1,1057096192,2369716738,3700244226,0.0145801901817322,253,24,0,0,0,0,0,0,0
10637.563,2/18/2021 4:58:33 PM,5.0528819227665,-2.05886606299295,-2.19583697790962,5.82597822597681,1.57156827078677,0.34308125530996,5.05290222167969,-2.05887283901357,-2.19582843780518,5.8260054467018,1.57156133651733,0.343072414398193,0,0,0,0,0,0,-3.43515908002247E-34,0,0,0,0,0,0,0,0,0,0,0,-0.0255809654918041,-0.320616495844364,-0.123477418097299,0.000186409108065648,3.14150369609271,0.00035919067257015,-0.0255729107938082,-0.32062758864243,-0.12347556074607,0.000140641383065944,3.1415005265884,0.000312629729095222,0,0,0,0,0,0,-1.10140677243075E-34,8.7847016715955E-36,0,0,0,-3.43515908002247E-34,0.139032941750925,-0.00439045760551619,0.25898671315293,0.00202165550200939,0.010185205886533,-0.000803995096562983,1,1057096192,2487157250,2845064962,0.0201796889305115,253,24,0,0,0,0,0,0,0
10637.567,2/18/2021 4:58:33 PM,5.0528819227665,-2.05886606299295,-2.19583697790962,5.82597822597681,1.57156827078677,0.34308125530996,5.05286598205566,-2.05884899715566,-2.19584178924561,5.82596968391494,1.57158517837524,0.343084812164307,0,0,0,0,0,0,-3.26997480805282E-38,0,0,0,0,0,0,0,0,0,0,0,-0.0255809654918041,-0.320616495844364,-0.123477418097299,0.000186409108065648,3.14150369609271,0.00035919067257015,-0.0255813791110109,-0.320614178528767,-0.123473997351857,0.000217015673902347,3.14148653709378,0.000362619334792292,0,0,0,0,0,0,-1.04840028689362E-38,8.36504652482542E-40,0,0,0,-3.26997480805282E-38,0.228623554495849,0.0684976853487356,0.391855692042969,-2.29114220670757E-05,0.0102477436840305,-0.00181183804450322,1,1057096192,2470380034,2694004482,0.0191650986671448,253,24,0,0,0,0,0,0,0
10637.571,2/18/2021 4:58:33 PM,5.0528819227665,-2.05886606299295,-2.19583697790962,5.82597822597681,1.57156827078677,0.34308125530996,5.05291414260864,-2.05890907863759,-2.19582843780518,5.82596968391494,1.57157373428345,0.343084812164307,0,0,0,0,0,0,-3.11228388926542E-42,0,0,0,0,0,0,0,0,0,0,0,-0.0255809654918041,-0.320616495844364,-0.123477418097299,0.000186409108065648,3.14150369609271,0.00035919067257015,-0.0255725119715527,-0.320607139076003,-0.123489248564879,0.00014141030817155,3.14151293257965,0.000425761866465568,0,0,0,0,0,0,-9.97820433729723E-43,7.95889170171104E-44,0,0,0,-3.11228388926542E-42,0.118923450912822,0.0292845339570882,0.20713741995344,0.000215421676089575,0.00775200636838433,-0.00231135580349249,1,1057096192,2453602818,1385316098,0.017892062664032,253,24,0,0,0,0,0,0,0
10637.575,2/18/2021 4:58:33 PM,5.0528819227665,-2.05886606299295,-2.19583697790962,5.82597822597681,1.57156827078677,0.34308125530996,5.05286598205566,-2.05888523677968,-2.19582843780518,5.82594584205703,1.57156133651733,0.343048572540283,0,0,0,0,0,0,0,0,0,0,0,0,0,0,0,0,0,0,-0.0255809654918041,-0.320616495844364,-0.123477418097299,0.000186409108065648,3.14150369609271,0.00035919067257015,-0.0255916572244679,-0.320606633987855,-0.123484268575533,0.000160177713438766,3.14152462456337,0.000419193331687955,0,0,0,0,0,0,0,0,0,0,0,0,0.221083742065476,0.0536562236149319,0.303987257474819,0.00103371582635175,0.00607544550517437,0.000402881453818332,1,1057096192,2453602818,999440130,0.0178058743476868,253,24,0,0,0,0,0,0,0
10637.579,2/18/2021 4:58:33 PM,5.0528819227665,-2.05886606299295,-2.19583697790962,5.82597822597681,1.57156827078677,0.34308125530996,5.05290222167969,-2.05888523677968,-2.19584178924561,5.82598160484389,1.57153749465942,0.343072414398193,0,0,0,0,0,0,0,0,0,0,0,0,0,0,0,0,0,0,-0.0255809654918041,-0.320616495844364,-0.123477418097299,0.000186409108065648,3.14150369609271,0.00035919067257015,-0.0255853509644099,-0.320613868528119,-0.123483621586289,0.000140642218479671,3.14153955746484,0.000373448559527461,0,0,0,0,0,0,0,0,0,0,0,0,0.0317198581771802,-0.0210426628617822,0.145026059008489,0.00214987638337304,0.00526169027204214,-0.00258538359869615,1,1057096192,2470380034,1922252546,0.0189927816390991,253,24,0,0,0,0,0,0,0
10637.583,2/18/2021 4:58:33 PM,5.0528819227665,-2.05886606299295,-2.19583697790962,5.82597822597681,1.57156827078677,0.34308125530996,5.05291414260864,-2.05889668087148,-2.19582843780518,5.82598160484389,1.57157373428345,0.343084812164307,0,0,0,0,0,0,0,0,0,0,0,0,0,0,0,0,0,0,-0.0255809654918041,-0.320616495844364,-0.123477418097299,0.000186409108065648,3.14150369609271,0.00035919067257015,-0.0255701750484206,-0.320613721811825,-0.123484593483659,0.000141399766682841,3.14150480029398,0.000389763843130238,0,0,0,0,0,0,0,0,0,0,0,0,0.211182340052019,-0.0178937696943584,0.24362628211412,0.00443847672653038,0.0114267000220986,-0.00206509382402677,1,1057096192,2386493954,915291906,0.0147523880004883,253,24,0,0,0,0,0,0,0
10637.587,2/18/2021 4:58:33 PM,5.0528819227665,-2.05886606299295,-2.19583697790962,5.82597822597681,1.57156827078677,0.34308125530996,5.05289030075073,-2.05888523677968,-2.1958532333374,5.82599400261001,1.57157373428345,0.343072414398193,0,0,0,0,0,0,0,0,0,0,0,0,0,0,0,0,0,0,-0.0255809654918041,-0.320616495844364,-0.123477418097299,0.000186409108065648,3.14150369609271,0.00035919067257015,-0.0255795696639811,-0.320608115996377,-0.123484628842998,0.000159282041985456,3.141505085395,0.000391188792935368,0,0,0,0,0,0,0,0,0,0,0,0,0.068454063279654,0.115558031786812,0.0405780107928044,-0.00268939898821044,0.00904701528185576,-0.00374210561541603,1,1057096192,2436825602,2307997442,0.0171263217926025,253,24,0,0,0,0,0,0,0
